lvquang0507/anfis_matlab/robot_data/data_csv/arm_data.csv
Joint1,Joint2,Joint3,Joint4,Joint5,Joint6,Pos_X,Pos_Y,Pos_Z
0.950084399768127,-0.272704344937488,2.60361032955293,1.55544544711553,1.33196155992409,-2.30919162488712,3.35555099585798,-0.555300951864128,2.13216238732162
-1.38777429984436,1.87013310544067,-0.61978843252099,-2.09506602717195,-0.776857440451431,-4.39120833162248,4.11106192650681,-0.931310754887542,2.16629684279554
2.4025106871507,-2.76221687729639,3.12056218250706,1.87647361801047,-2.92931330722887,4.398639739025,3.741889272089,-0.328608701638386,2.06166608746849
-1.36522444837462,2.25669365443213,1.60492121167937,-0.796509402837787,1.28225282316737,0.361052601406482,3.89241426070207,-0.468018250187827,1.90145092116577
-2.73544718602327,0.226712721835194,0.861870891953897,-0.874392615086872,-3.11596646168055,2.24743210913538,3.79133752914796,-0.265358586868152,1.50763492640303
-2.57757978455776,-3.09020495724304,-2.15319734837761,0.725037368215549,-3.02776482295825,-1.16850146769713,3.77917501553602,-0.238583492448781,1.98504165999298
-2.85617575218698,2.05556682871294,1.37936912660408,-2.39018598886389,0.690588368551331,-4.61850480738553,3.4992646539226,-0.83430134781212,2.08435480504894
0.139094242696679,-0.795214722622882,2.20187925636502,-0.436790284051443,-2.1194447159137,-4.04568662376773,3.29312836611587,-0.493572360231958,2.14633222948293
-2.0579722547061,-1.96606739262424,0.951260432461175,-0.757595844846102,-1.13589803001649,3.46672765517716,4.09143691031835,-0.184424860278097,2.45862614449157
-1.16976564209435,2.38353626276239,-2.74962825891124,-2.6726945805101,0.181951729049761,-0.0329478826460807,4.06083772035032,-0.343555842244462,2.05628351091158
1.01922840276889,-2.73042934626999,-0.101825939710535,-2.58301255796901,0.370974937062305,2.62769480901058,3.28874448423477,-0.39243005013291,2.21415933293231
2.70190448666579,-0.937340964426713,-2.75113093522356,2.53046579475968,-1.5331398646432,-1.92946884376644,3.78816726256541,-0.63041135877536,1.64419402959286
-2.55421735238317,-2.3026624977643,-2.05014985007525,-1.12585908225338,-2.67094264358099,-3.34213532676075,3.89497563739928,-0.19280277600062,1.76282132440972
-2.28285281303495,-1.31853071185837,-0.47003162237593,1.63621353619794,-1.86631892480931,-3.56087941420452,3.82994347306219,-0.380546591267037,1.84726275090884
-0.865735501029827,2.63146158381057,2.67815319388201,-2.29661551455966,1.83467824321207,-4.01078030865808,3.85899477351899,-0.577229073096561,2.19007666590069
-2.23530513172801,-0.47252356260441,-1.3707280334126,-2.00854233412354,-3.0526412703485,0.495425291093262,3.58103369921709,-0.379675375688291,1.53668707428781
-2.06996111957189,1.62658041452712,0.685820145046051,1.66673705239026,0.481744941068822,0.668999522031413,3.72786632896619,-1.11324328222286,1.82590435340495
2.27209747472719,1.38317451009315,3.12234402446504,1.2775695635546,2.01559085510203,0.68238723712027,3.81337135372043,-0.61092417187175,1.97556674261376
2.75372795128784,-2.80360030487122,2.74908341098488,-2.21381808182067,1.07194947237487,1.70017830446348,3.64063359126362,-0.68550438182331,2.24512792884865
-0.0255982743530021,-1.8698255618544,-2.39373551260119,-1.90615627148277,3.05852675949658,-3.84945756026418,3.45632449724276,-0.570867120968178,1.82143400483045
1.06331763751304,-0.463101083115804,-0.129863145227333,0.702514064487274,1.87186963312024,1.12571653495083,3.47217512143221,-0.759989081022526,1.36792667462245
-2.25364180481743,2.03741128386669,2.21309888423564,2.74199963595908,1.97620052326579,-2.91220765899537,3.4355949158909,-0.810383830440112,1.80366456410661
-1.58068414404888,-1.36582468305353,1.30049049688111,2.15322015520235,-2.04167983892729,-0.114022109647595,3.69981774551154,-0.281215628869242,1.91680121570104
0.0895624007498856,-2.67792652122297,1.32558908425603,0.102493414598795,2.33901510889464,-6.00002058456515,3.92017065300214,-0.480999242615876,2.22417120459673
-1.83647552355222,-2.7007069680658,-0.88173823843813,3.12708879122539,1.69177530880162,-0.471984890144819,3.87435975496565,-0.175243935423504,1.95179436214945
2.7077460724291,1.4257180542126,-2.7041796747144,2.40047701874716,-2.52157253407629,5.08552503000594,3.53224092618627,-0.27711798652448,1.98522465739041
-1.9411901777855,0.752632966206697,1.30722676032498,-0.0710296195754601,-0.82516889639002,1.97063817289773,3.93396318691727,-0.698098086555014,1.40715233854544
0.438961064704902,1.47138230574397,-2.63482141037316,-2.97802231207184,-0.631234508821598,1.50358983191443,3.71893815867646,-0.0444411468994078,2.12958573588432
2.21017635765531,2.98692730179927,-2.91211294936806,-0.904434246451731,2.96794861812816,3.56278684976464,3.87879139755451,-0.502319215020199,2.010525072513
-2.37414035191148,2.45067711232541,1.42514363484115,1.45580437708615,2.21411922134199,-1.77828562554169,3.27414096626518,-0.836093930232366,1.95901342219795
-2.45179916030001,-1.26112106193192,1.40472973786552,-2.88716232795331,-0.922291636850059,4.84303843439534,3.94487922395847,-0.586659292658082,2.14528054716337
1.82392712581595,-3.01104964911749,0.460656521655336,2.3688400949091,-1.13443544025107,3.74181093721602,3.45085080514679,-0.454277389108513,2.12867721929246
-2.47109776345604,-2.69381302259931,0.64580648187258,2.46685619927388,-1.31606941166432,3.62899663207531,3.78744867115275,-0.607137128821083,2.1136471676764
0.966724891552885,-1.2400320643211,0.410336450428144,3.07875964736339,-2.86532128452159,-4.38648723329886,3.58659783345493,-0.791658968985505,1.95920929051288
2.1502965926109,2.60734408145484,0.670849042181498,-0.857088940124911,3.04509352603046,-3.59028073108857,3.56995875236079,-0.0380217907137548,2.16825534988092
-0.10187288212875,0.0766028277770579,2.91941090561024,-2.57073184863054,0.205099772707015,-3.91205712418812,3.71484295597557,-0.0683544148557234,1.79048524732455
0.74017531810183,1.80240465856637,0.685281047949969,-0.713526351658643,3.08815089515936,-0.312294606394653,4.09392354759007,-0.248712153719683,1.84001663420885
-1.94638428247772,-1.35085115825957,1.4195730897112,2.51456362637444,-2.71417722048297,5.08006848823654,3.67298814098185,-0.176604203277174,1.99326392106115
1.42485958214234,0.0207288443966216,1.36430576953116,1.93612901847215,2.88914158316174,3.41124405832303,3.77408147001458,-0.665624945149331,1.52731980680613
-1.29317406002729,1.36420906842472,1.26248486280354,-2.21060320927233,-2.34883368679878,2.04905215657172,3.67198409452057,-0.533315505738151,1.56273990689796
-0.0781040982732524,-1.73556956640619,-0.345325237158873,-2.22577780613999,2.29295969149454,-4.54853419313163,3.43410065127911,-0.484761005471533,1.94381259798182
-2.33675283555653,-2.51919357237055,-0.633545689358872,0.142509857845737,0.917074294423718,-3.46395251105807,4.17663215438195,-0.347738326525606,2.43387680095462
0.454099657334451,2.88162588194998,2.42047131689064,2.17994940066088,-0.131315419861642,-3.48196705511892,3.68187335831265,-0.0188654585098136,2.09522489841369
-0.207003372032243,-1.26596449828514,0.741159820791754,-0.787764650738968,1.35272837610632,-1.21708687053057,3.51515066294549,-0.202008798523117,2.12038736367921
2.07637173916242,0.566098185585723,-0.241080994576892,0.883122209681551,-2.82844047273967,1.92375093990811,3.60527975845426,-0.0768179452621707,1.70142065939918
-0.508726930348928,0.317188256420406,-1.50254197228462,-0.303727223538799,1.87113708997603,4.7035471347265,4.03223556709973,-0.556131424462477,1.50905252504957
-0.919733919574999,1.24457901021085,2.16184541027186,0.448945269349422,0.136104099261363,3.22141987301162,3.98499296728591,-0.200874343091303,1.65813501233938
2.58532863686712,-2.90711874536705,-2.21408645507951,0.107694965177081,-0.921562950397037,-5.48964530942289,3.5859138334593,-0.738765428375445,1.85077366842376
2.67934529242316,-1.80503954624612,-1.31451293966845,-0.983430472242684,2.24680316168935,-3.77412590478134,4.11456787774076,-0.616762886599272,1.99729150242034
0.277889739435685,1.33353129786462,0.795228531478143,2.82478613315535,-2.75815835070856,-4.4433623960602,3.91949820377696,-0.487710227324005,1.76862005014012
0.538415749584014,-2.1905727602661,-1.44400039368929,2.89771287151557,0.305519676184194,0.673565820207112,3.29240690232718,-0.248825752720379,1.89279864703818
1.91824193102389,-0.26038782297611,2.45126128008295,2.66091147041735,1.32252608258181,-3.43861189897879,3.64846003211487,-0.897506100155336,1.81150716222964
2.50740125295179,-0.13157254444719,-2.47043522244229,-1.92304402949439,1.49527234808075,3.13405603912258,3.65519891792661,-0.612426337851941,1.65072788122092
0.652601614408959,-1.52152618658752,2.79207877558477,-2.30450869471247,-0.524654631422857,0.91938111217379,3.49622010260653,-0.13701243805009,1.90998524517584
0.544597440510656,1.43021445574458,-0.0434870158000407,-0.605343286106152,-2.84823835068671,2.77954421457362,4.24752594395552,-0.24288907500689,1.88548495798519
0.98836002543191,-1.08909914387861,-0.602739531140316,0.847660603584762,-1.73599079888347,-5.5676678911481,3.57377954634109,-0.43447510649237,1.67030800837206
2.44714060294959,1.03636161811327,-0.241740645196698,0.0827882775207049,-1.72748240314503,-1.75103579100083,3.21639104413729,-0.148583288438733,1.98822745807034
-1.45187564812983,-1.76815180852895,-0.00582967118501454,-0.598576832240683,-0.770963593701072,4.57582263981663,3.90957942270518,0.231346592517237,1.95919897935785
2.33955838886418,1.10779072377395,-2.17778822800142,0.795744090625667,-2.31280258814809,-6.19990357753348,3.7017777306698,-0.403370316161308,1.93086217652288
2.71665070118021,2.58028707231198,-2.52335688202137,-3.0755675739406,2.58765668247846,-1.46123743842171,3.65042568436022,-0.34685277691801,1.96905978735087
1.0203865588066,-1.43120217170245,-1.18071500196846,2.33251012079683,0.689435051962934,3.58279282101945,3.33406931794953,-0.380152652085908,1.61874193421375
0.553448938614506,2.95613227146769,-2.92089985143453,2.89383801477715,0.712229382668946,1.15146106549439,3.65167489877273,-0.100934194551708,1.93835444165195
3.13008357407242,-3.04066110904821,-0.307898672880869,0.877378269777681,-1.92283518712138,-2.74070313838826,3.96339890590253,-0.486134547067088,2.18257030321673
0.292318648944086,-2.29573102390476,1.10912586412364,-2.25011719362314,2.96830597483916,-1.06545484215329,3.59361523830077,-0.602759818823721,2.21525086444787
2.68586074516306,-1.01819827574433,-1.82802457094601,-1.48093321390499,3.1034659660177,-4.08698562149415,3.84000095645763,-0.381304564412166,1.58976786106232
0.141298522473033,-2.6577535082174,-1.49229045322742,-3.12534740918901,-0.952525822550277,0.263075223687599,3.31489861390992,-0.213350414319011,2.29319442170017
0.482927007055917,0.0979707497182036,0.0399111314860363,2.3987962693838,-1.16061741353729,-0.13541187072515,3.48371139017055,-0.29368545515344,1.6910998130443
1.98217012772279,2.70716331606908,-0.84253485556714,-0.364394140921183,3.07529013720512,4.90870011579168,3.78104483737249,-0.350836466911801,2.44502354390148
1.86794911091574,-0.747117442611528,-2.15698826631144,-0.551657126887171,-0.472359672298833,4.01793247408947,3.28771428218292,-0.355427897884022,1.76810906031357
0.885519460237822,-1.21821432821065,1.27298424973883,2.11916191590769,0.961083166254628,3.51995376262019,3.09259554030184,-0.724290099176602,2.00891587210882
-2.4902842976427,-2.79352476032454,1.78565291644731,1.70423228975132,0.999909590069684,-2.85393092431397,3.60945576461094,-0.854521218488712,2.36115966022099
1.25222082588388,-2.18894193149914,2.25030104260475,-0.493948974756386,0.414815408311779,-3.38843349989978,3.36624730781752,-0.252455454868304,2.01475912838408
-1.61512382880952,-3.0429934401295,3.01119707753334,-0.60295771939767,0.328915900814494,6.14886284377232,4.066351917094,-0.391135300553939,1.94983741243616
0.171461555002106,-2.46587442157347,-1.94127617077875,-1.59325422330904,-1.12242443420949,-3.40737361135588,3.18177701050362,-0.284357819116259,1.80897858649423
-2.19520908332588,2.84993488701762,1.72826540024063,0.459753492592871,-1.33163579778426,2.77679505532542,3.63551962083678,-0.86118981463714,2.33696193826504
-0.158118130462454,-1.88573892034211,1.83532811876156,3.05593057807801,1.49082114905225,-1.91843613507151,3.3446770852931,-0.22068559646242,2.28481534220699
-1.22701484988572,-2.27484867874152,3.01239170512994,1.9840723825632,-3.07141052587549,2.3185575114533,3.56002906083738,-0.468885632042639,2.09107797724181
2.49117639979615,-2.70333100364088,1.56857145669577,0.777319082263968,-1.59765011489057,-1.07346621101528,3.72348057079425,-0.609572511886653,2.41692813117701
-3.08408091819679,2.56290251843524,-2.43977728852734,-1.81727852350936,0.0334109035923946,-1.25868994172583,3.79480219123022,-0.833520390667637,2.16677456640692
0.455451163693835,-2.24120399488078,2.75357443480199,2.98247464273048,0.543549209260604,5.00652836770834,3.51987527391736,-0.126397908362831,2.17674943781359
-2.31604906518156,0.159962542435134,1.98677582790028,-1.32119766108352,2.39849092026929,-2.99457967261527,3.63731050195892,-0.417644399242356,1.8641621907497
-0.942920033004345,2.44046536243006,1.69183236826707,2.69279522875745,-0.830656441309409,-3.63880813977613,3.99597260747678,-0.342281542179341,2.02028262252001
2.03408583597345,-0.143251876923344,-1.81923207280872,2.98054187966979,-2.97198544380865,-1.11966192411117,3.75576263927572,-0.30271254781804,1.70620823155964
0.409092984297268,-0.78254103384822,2.30905460580444,0.340451102009383,-0.0157000842852408,-0.0870599376834944,3.33678995263328,-0.175729121117187,2.04311407932508
1.22283891275258,2.56986377757606,2.84601028401106,1.09585744958285,2.84328202995587,2.7878800087152,3.83313572267281,-0.392041358325242,1.82308024166532
2.59390342216201,2.89752332148551,-1.74881585507094,0.169696732883037,0.577691270082414,-0.352879616001522,3.70247328549491,-0.870505259523881,2.32366842273321
-2.67550323211795,-1.2537217806053,-0.448647054282547,2.96584388967803,1.36657869407002,-2.46608917258196,3.91877559374702,-0.551879837986859,1.57021758369074
-2.81527819329529,-2.63346193152397,-0.494238515041686,2.42384312001254,-1.03562676604875,3.19984166162285,3.82184492020886,-0.679579402188457,2.23372223427857
-3.08093482527134,-1.74418701910329,0.34617943826421,-0.509559012216614,0.534554890427474,-0.994828946586049,4.07106756745616,-0.788797558209551,2.2168982195202
2.30591207835431,-1.83534314873057,-0.994643900949398,0.508830462100153,2.38021992377716,-1.20595520704568,4.1216767962336,-0.86636423588696,1.85627630469274
3.0713355670195,2.79146728261669,-1.66192299288495,2.8258497684094,-1.89577014507256,5.50697007538197,3.61715527739171,-0.478485837895584,2.39256263685072
1.31115614935589,0.822610817239082,1.33277062545474,-3.03605432376118,1.8559148873153,-2.87837885298466,3.71394468726051,-0.0984559030035858,1.59263943714737
-1.52231464760523,0.0276016611199208,-0.0180310478746462,-0.0942310793803536,-0.964853437328103,-2.7898694248279,3.96977724719516,-0.663212505076691,1.37364396444892
-0.0773368847225773,-0.533497515053742,-2.35696656296146,0.0930900708941098,1.29767198789224,-4.55699384436359,3.95210074518944,-0.288025478411296,1.57955719454516
-2.63075058083813,0.519104400964968,0.40843389110489,2.81301351317698,1.54294634269011,2.6152656625482,3.38306395154818,-0.765321141844903,1.56735066453887
1.83995146490328,2.58664381834347,-2.17758673269585,-1.61740875695173,0.412364457807617,0.284148645359294,3.32764508320381,-0.522773036366788,2.20726206055581
2.88933576162716,2.51919604297802,1.87296185353692,-2.92572528466038,-0.232901417875415,-1.24915733537194,3.43814746428487,-0.775302561810725,1.9643978382557
0.323156958146761,1.31253832792572,1.28116588638103,1.09112548254562,-1.83208387068595,-3.48212967160593,4.08704490773219,-0.239830233610992,1.85157508331466
-1.27300802369617,2.92726972658465,2.7616977512091,-2.94511163483226,-2.49686911919013,-2.74521242076299,3.58329137171874,-0.386910528540703,2.01848157031284
-0.510720098634585,-2.95002583600375,1.8351214191286,-0.502495401043653,-2.90436512818276,-0.869732166184932,3.84493374841702,-0.679884158967729,2.16803596291959
3.14061632927147,0.324014519502093,-2.31941554114597,1.4794663216979,-0.72635808896443,-1.64128855255097,3.68332917486197,-0.759333479336789,1.79440407274862
0.522493915958953,0.691202301707539,1.75872668125485,-0.800902264097303,1.49302852832977,0.278242117615018,3.59846995546682,-0.331802276429724,1.9212312224364
-2.49458862104295,2.36154705482163,1.32988455737705,-0.612087862511037,-1.98659493397549,-0.56048699123915,3.22268401523189,-0.819757782834384,2.04217238275959
2.4036950468048,-0.358904110461582,1.00325970180235,0.984481047929252,-1.90130447982858,5.2418365363273,3.74025523413246,-0.538010965944881,1.51587633391838
-2.03729343849542,-2.21203637760929,2.01703557717149,-1.98596360312076,-2.33125734539671,3.75847127395424,3.55591002551323,-0.583662950393828,2.10027453692839
-1.91850366160707,-1.68745048528481,1.50679340367095,-0.108449945811763,-1.20109236462307,-4.23901064350442,4.06640061974166,-0.111138103339048,2.31816395905889
2.72906217247105,1.11156118067773,2.49727017384637,-1.20191042855329,-2.00318211370522,-0.504315455871427,3.8851669043018,-0.550340902842181,1.73398004176854
-0.759795514278379,1.92772231097784,1.74180834666282,-0.777100128707189,2.85541894855984,5.42099925163643,3.72090960326217,-0.636753881817854,1.81091197330823
-0.279536021111132,1.63526609364104,-1.0172638801368,0.311846410912266,-0.781967352957635,-4.51389345976492,3.96383973715277,-0.185947736106591,2.26714418419299
2.53569485348359,1.4198858606345,-2.5953315764124,1.96744614851482,-0.471875786236976,4.41590472948355,3.33824723396022,-0.636098555172908,1.91834556091686
2.80793880525166,-0.395930277931429,-0.720260833412265,2.75802072922053,-0.673787961864029,-0.926382923431896,3.76606681609268,-0.817917398746233,1.60171332495518
-2.79998867625756,1.44443173296091,0.461938711920327,-1.17019234618484,-1.06222825408672,1.11019947430028,3.19615890708615,-0.913452016244518,1.68146508559934
-1.7042258066574,2.03360139938251,2.79566236904007,-3.14028908258551,0.379703039458851,-4.43718677409477,4.01840022213754,-0.711889586116332,1.88697363019287
-2.50546626058224,-2.76115958854779,-1.9803906030607,1.11905615190642,2.02811696260145,-1.83718595707822,4.05956111201848,-0.216929281474488,1.85452621706825
-0.596357793404952,-2.60492297795544,1.25431427061634,-1.27200245935191,-0.109157846004799,-0.308429883384598,3.97821936011443,-0.178378351683928,2.32050875923003
-0.623639262507562,0.536357063842643,-2.96037266259805,-2.4592347000592,2.89543800871602,5.73431914400805,3.67573012099743,-0.585347734189302,1.83841455924376
2.71409579865132,-2.28879686618486,0.453152378524548,-0.146513149111011,2.22023113805047,-2.484024240051,3.77017160937678,-0.470222086382426,2.45451923068102
-2.88134420001138,0.120253665588597,-1.35569100036084,0.608900671933201,-0.284792568776952,-2.85104783983593,3.49897298557691,-0.88959059396231,1.80381932396039
0.273518408478696,1.15844564869731,1.49678215160886,-2.6881333781906,3.11058397689106,-2.3342817347805,3.87880486451524,-0.526870245736707,1.74877502697201
2.58992907772353,-2.36339388533045,-1.349215842895,-1.35823250927897,-1.53507443439287,0.620905918464941,4.10480878599201,-0.885257472229073,1.87589924886784
-2.60281643942213,1.28993594032705,-0.668752618720164,-1.15308251647149,2.26366019549566,-5.28777773943136,3.35773801292756,-0.589736063573145,1.77209499302812
-2.02286038701208,0.314233702084565,-1.24772143909135,-2.22730163146709,1.97279448188683,-1.70778829900301,3.71310733717972,-0.506460989240135,1.79469122821555
-2.58581093921617,-2.0433825890951,1.09089374633939,2.5200835460003,2.43660306771012,-4.18683322133683,3.98483635927211,-0.172024531213918,2.27989747168779
-2.26555656018671,-0.751205100310238,2.8947180383088,-2.10423304624015,-0.0464270787769578,5.75615688319511,3.99160921681918,-0.690451799841882,1.90787299408861
2.02844910355683,0.222166926556732,-0.272410313082833,1.3226190499164,-0.573317416851367,3.00546628243929,3.2736186526253,-0.402300565068342,1.68004527887104
-0.183593036954465,1.56116972150527,-0.400782179616196,-1.11545299674512,-0.655083690962373,-3.65080548370307,4.35612973205072,-0.224819832825974,2.06775909725603
1.40260878961574,1.43309709587778,-2.14793324032911,-1.50174065983813,1.29049801105159,-5.28044459049681,3.56034422537658,-0.0838909715298982,1.91969675723534
1.3431255947381,1.12561826030811,-1.4761327835391,-0.455634554804012,-1.7399870847139,-3.80322195992568,3.65104309759311,-0.158293403828398,2.29485881430699
-2.67580933528684,-1.82001516612522,2.58955580380822,-1.82193422143902,-2.90737384523565,-4.63882998635698,3.58790263296062,-0.368905608237787,1.98661573241479
2.40428090232376,0.312774514273422,-1.84751942629268,1.31695918309171,1.54552254263266,-2.54698011491262,3.24402261793809,-0.248642533155058,2.01452073220603
-2.39235191261491,-1.79418135065549,-0.380071902724902,1.0516185915662,2.83745076746098,2.46104372975454,4.00394824389022,0.00991520641857513,1.8941749996855
2.24826835713372,0.596857680709971,2.05288868200389,2.59487356815922,1.81209975995826,-1.75397896231433,3.68043476269195,-0.583622129366361,1.4497635142101
-2.05415407550061,-1.49329497302126,-3.01890359346561,-2.71897724628939,-1.93252157504177,-1.24330774644921,3.71266563797522,-0.444065494194532,1.66975723138869
2.91853073165672,-0.517660468600558,1.36216279068205,-1.03615665594373,-3.0492516919303,0.38028051687109,4.07448186478557,-0.407756965038221,1.8558568997852
-1.83022198356499,1.65400073971135,0.913206726544965,2.23030711463769,-2.86167042133295,5.91103082671354,3.48509254209967,-0.741463499872612,1.88417700657148
2.8154490346694,-1.29719366732441,-2.0982218716788,1.29465945627163,-1.75575320155213,6.20994608606364,3.80528638700673,-0.57546770134802,1.98347714714027
0.116747518067082,-1.36019067038031,-1.97719542358634,2.31093472080799,0.181053929251845,2.52600196686599,3.60634023394599,-0.0722534386311192,1.8085722389764
0.2717182240246,-0.0145886331918792,1.23339283500114,0.412910652196393,-2.44626201977672,4.68589791158096,3.54554559019556,-0.572284226921518,1.46587930695005
-1.8417238817553,-0.718635528871575,-1.83569110266116,-1.97209546768847,2.66075672102737,-2.69273116305795,3.63107343948964,-0.297157981835552,1.69677699168425
-0.453519871472374,-2.9704102787013,-3.03912732422059,-2.18115805700373,-1.10150916089673,5.55354307306884,3.6021479539282,-0.145613355767346,1.80564544842342
1.43283344293704,-0.223298465682314,3.00985082443355,-1.5605418646507,0.433328667776913,-1.24643900371912,3.32097712297413,-0.361105612274412,1.82377652909318
-0.147918317863901,1.6448666468835,1.0415224787576,0.986613852323417,3.08236692516281,-5.46228456489288,4.09783080850043,-0.639624325953454,1.78947160037706
1.74818483651351,1.26348499582728,3.0949184813507,-2.96454288601965,1.50912134379467,-6.03224839729436,3.53483167372851,-0.405626826984369,1.66379181789866
-0.243701595520165,-0.424815107200219,2.78468803324223,-1.87516743893341,-0.443048514676581,-0.0832521292785104,3.78898982273684,-0.0991498372912371,2.01776509037487
-1.13193411784323,-0.23807646442373,0.03505625882429,-2.41126826881786,0.18863018112664,-5.84549538406641,3.99433708046738,-0.201834927778493,1.58837615915577
-1.07412101082061,-3.03331486077681,3.00808203273861,-0.436948897298922,-1.12506813719427,2.73525573816369,4.01604496341305,-0.53178312134201,1.83345020669903
-2.61169671200274,-0.369179821212424,2.79511126602301,-2.77522587443692,1.51993174157821,4.98949247588262,4.02731077633155,-0.439794356253592,1.76994353638086
0.531483412990851,-0.174961714885598,-1.35696593991586,0.661610934186563,-3.12327765785723,-5.9696428482593,3.93639335388764,-0.449872185521364,1.65335421638971
2.3242549593504,-0.483742755645118,2.61320385221208,1.90746278380456,2.82611857854835,-5.20050137853226,3.92249942874767,-0.523902469113511,1.9729905118216
-1.6292523635443,-0.569874317169269,-0.0798389213142654,-1.0962463056592,1.42066544847271,1.89765211567866,3.85508863907275,-0.138293500579984,1.81259854925303
-0.772189123803108,0.201352465000503,-2.49445011968459,1.60523963020803,2.46321735811944,5.51288958561594,3.74832099860474,-0.594320093437269,2.08667809267716
-3.13330915628981,-0.460452928283252,-2.29332486576913,-2.62525724985814,-2.48251166484711,-4.68013249363441,3.52675901678234,-0.389536523205758,1.59759022925219
-1.97039317530051,-0.828249126881466,-2.79389794193963,-0.227589077491715,-0.682190316953175,-0.750276284077142,3.9616961948978,-0.627217035985034,2.04639200732933
0.492141327379969,0.00843355135928103,0.421176753951675,2.8982984111362,-2.30653397420773,-4.55638938598899,3.52985051482518,-0.563695285642066,1.70247507592419
-1.94372429638089,0.651744687357907,3.03938963439865,0.432941157809109,-1.71181173031309,-3.15016204367074,3.84520800014733,-0.303826392931408,1.70970623882109
0.906737593035738,-2.95987735638333,-2.23549388571237,0.69054854049362,2.75739801448414,4.39037449572679,3.57915859834338,-0.750516938507078,1.93741299027885
-0.851786001428833,-2.1487328610151,1.68482342074323,-2.25003845210125,2.79297476610493,-2.83548780302138,3.51199664544429,-0.416232718081843,2.12077827495414
-2.74467507006439,-1.10444706249666,-1.9711557884375,-2.4828946952307,-1.27167950601358,-4.62650537041852,3.91563833303154,-0.5992981228852,1.46122359257864
1.36988311373952,-1.64343128935379,-1.53453276770339,1.45614693580456,0.455897050804677,-1.4877402913419,3.28050034234639,-0.575958124141569,1.64008512385581
0.317080754570124,-2.0009011685396,-1.12096648942733,-2.24064807740432,0.497299734044098,0.200291870177642,3.32847360001245,-0.1912084010737,1.97867382849789
2.62973549181729,-0.929004416517427,2.22013734640601,-1.17213027045379,0.842009665841386,-2.20491417540583,3.56129591415711,-0.740852417422663,1.88229220959929
1.37896693754776,-2.81406558151201,-0.506555091887584,-0.545615593500336,1.73374274398311,6.04367224374399,3.59257758452945,-0.439935095826623,2.45451371838858
-2.83284405506104,1.74561192616559,-1.22697687198994,2.03516788861542,2.76782953876877,-5.03313980496273,3.48116120204974,-0.391438616523487,2.24778626514028
1.24858942615933,2.26830863492341,-1.97653249372471,-1.70142805820327,2.073030350075,-1.11086878552096,3.73887721628525,-0.219519225017919,2.12811246999855
0.848906621064332,1.92233760645714,0.363078222340516,-1.65618779752481,-0.160294177105491,1.93624960242941,3.69464188021353,0.149862174500497,1.93244341153791
2.84899851659924,0.608197308073099,-1.47830750653548,-2.37873315830714,-1.60460270786403,4.83737425728512,3.13290770359999,-0.387954653137171,1.69734817514426
0.708804857358623,-1.48433936583391,2.84015757964178,1.87043315764882,1.19523693197413,-3.31083974823479,3.59816885896404,-0.231363297946027,2.24075775331217
-1.1055425257124,-1.41432352834739,1.09914031877767,0.547953437737883,-2.76985847371737,-4.4092466119882,3.37330149468672,-0.0536002989306594,2.0113599483708
2.12083307984257,-1.1239340545487,0.594735566701353,1.93580963499766,2.29929213460137,6.17690278605954,4.03738742171631,-0.945280247417503,1.76693196134364
2.84484019108047,-1.82194200126793,0.82658377134684,1.20597648551033,-3.11234834726902,-0.10910659812774,4.10650101810495,-0.443753016800431,2.18044998578592
-2.86359205666076,0.314088868294244,3.03049370389811,-2.79895378347916,-0.415985256582439,5.92621135754606,3.67810693580726,-0.830533913285456,1.93824000088112
2.53237082367248,0.985186851705748,2.95261336225398,2.0298001743451,2.08401734540493,5.42846707063822,3.85841586262471,-0.590461132492735,1.80740784708166
1.21441194767235,-0.747522447439092,-0.997302948277043,-2.98161294560545,2.18783041041261,4.02207592956053,3.70911304697711,-0.403900199504209,1.73876975257731
2.37117512626384,-0.532077302688351,-1.11680511819154,-1.80716446751152,-2.428608445429,-1.65841342158966,3.76664777689593,-0.417292408070953,1.38401256245384
1.44077485338443,-2.8845959800781,-0.885234312939271,-2.07328985996424,1.06504528116907,-1.77746995968934,3.40743108176638,-0.467505279416684,2.1497042108342
-1.64278396321253,1.54789380935895,-1.43877680618441,2.17780832533952,0.34786898016129,-5.62100705088423,4.04323933280383,-0.645670939103997,2.2108977488483
-1.75364033038276,1.16158554081321,1.02955210135212,2.36401819353139,1.0265310806472,3.44141781080676,3.86349314081382,-0.978988844478134,1.59034992413382
-3.05577975070979,-1.07695943653311,1.09274230529735,1.02525808381515,-0.721537857947958,-5.96956409385309,4.09483191591947,-0.744492205683305,1.77215913635048
2.93476392107511,-2.36781479197093,2.8938573913569,-2.89962796936719,0.859585368583604,-3.86667425907358,3.64939437245424,-0.736660345509281,2.2345650116741
-3.11710541781152,-0.651336659977415,-2.15875738020766,2.46914645372507,0.42008682976141,-2.05176529785092,3.64178899664393,-0.824903299051823,1.86780635909952
-0.141676237583782,2.94505022278,0.709698023002212,-0.948374230010135,-2.89397216165348,1.46012686058852,3.98576348438269,-0.607289942858388,2.37302113648908
1.83008030663451,0.921504447668718,0.617701818689126,0.508301538998544,2.33323284775765,-5.44696480224344,3.69533146621926,-0.251813932634397,1.41793096245027
-2.69695211914176,1.1438425268924,0.318394721295708,0.593741026634213,0.430927185659385,2.18100100953578,3.42937122678416,-0.968948827723717,1.56311022330044
-3.11857083857764,-0.61913802290918,-0.560386434022288,1.50581495457243,-0.532080283037269,-5.68441484464899,3.76635860276062,-0.80708751690067,1.64613569851818
-2.98648501934616,2.19243891940292,0.703879574438394,2.49839091433669,-0.710572712299559,4.27840738602539,3.519430238367,-0.793478197834556,1.99532023680294
1.84181933041614,-2.59733001950352,1.18679735738919,1.60397332439045,-0.651669265018275,-0.667768406170478,3.41007709775349,-0.681885406497651,2.22685665221759
-1.18484694946829,-1.12414835844619,1.43921864751068,-2.28739684513134,-3.01900889981544,-0.532209303687927,3.46853454187478,-0.249547182896032,2.03049357727947
-0.577445193486122,-0.253371716306931,-0.206641995842248,0.546586584560936,0.0580202956765561,-1.22840112897384,3.87523497963143,-0.10566064565589,1.4304365659595
-2.52702368606695,0.567398485447015,-3.00989751301169,-2.27891509265543,-1.39714947741476,-3.00432504554893,3.61320253773189,-0.712262226246053,2.1508189337655
2.88668198552927,1.70802812643363,-2.64072314977272,-3.12905258233085,-0.761903013236653,-5.3062190048709,3.44059833610327,-0.726009414990476,2.18528170600023
0.273742617164474,-2.52854870118719,-1.60813777235174,-2.9715271877924,-0.576645072407302,5.72487824773514,3.2343332866883,-0.22073993472978,2.16762993588142
-3.09680569655153,-1.04974349446808,2.14293658292299,1.83731296366188,-2.2352758447477,4.2534733132234,3.93619812153042,-0.394246296638383,1.82944020039248
1.11322768268166,2.92727642651124,-1.30984108218469,-1.42091655465025,-2.23146744493174,-0.361486746276961,3.58156328772877,-0.738180914013242,2.40718743469244
1.47677901083931,-2.74257374188574,1.0740143313358,0.0964263959354663,-0.384527641656017,-0.33818766874484,3.31884053173606,-0.426441413836031,2.44790172666272
-2.02975422633128,0.124635424739566,-2.11753937569151,1.77448311403608,-2.7290162977675,1.87457695634156,3.57732071448592,-0.448994557300003,1.80154721081915
1.29965268809114,-0.0759226695135182,-2.68992707183003,1.76278295271435,2.50952065570665,-4.7471980615012,3.78781857163526,-0.421190960907487,2.04312548355204
-3.13573747428189,2.98423781511596,1.14228485618866,1.46163963205494,2.87646235682027,-2.35736216552139,3.37748246043062,-0.335892427100987,2.35541688123979
0.809549322643893,2.52706238212867,0.34116259322067,0.496176754138503,-0.656191551000176,-0.665124376788484,3.5831509531438,-0.0817585917396265,2.40383225714826
-0.182887380554357,-0.840622013918125,0.0996101469375543,2.19975347383869,2.88741859447006,0.262692503489907,3.35977101189722,-0.511135847858755,1.58062944710249
-0.365969728473977,-0.0980040441752048,2.21104549329433,0.781475118910123,-2.22636132216462,-3.74546984053991,3.42374876646764,-0.366487151338886,1.63008659104645
2.33658699564603,-3.11099947309927,-0.0838634423778215,1.93679010319271,0.446488500495776,-3.93824921892724,3.55229915027284,-0.825502564550719,2.46568431001801
-2.33119765743139,2.90173697588216,1.5633372000581,2.9207102981599,2.90080042997801,5.27161037324188,3.44185714227619,-0.537896596507356,2.23659278472703
-2.61451383607143,2.18387579563829,2.79095746797775,2.65362379672618,3.0066218254598,-1.32465963565222,3.47450245531296,-0.430452963473109,1.89843757221781
1.87861815116114,1.00253002781888,0.447051024039178,-1.64843425102349,-0.818747527756729,-4.69363592411292,3.28114334319665,-0.240010897792151,1.43893035913869
0.961522256183007,-2.46156232563116,0.218786987917902,0.238988420696124,1.77469195492545,-5.77266664950774,3.5736760832135,-0.49079056029273,2.53902963740407
0.0310944897187335,1.52630128672945,2.18276748815197,1.59561171668711,-1.61449352256859,-1.21334999989336,4.01158619750717,-0.338604317137062,1.92772193540639
1.40080709746592,-2.31078571505809,1.03788885841305,-1.19398640377684,-1.11372741682592,-4.75918510557431,3.41102420705942,-0.493349525107681,2.55238539582978
-2.65434336593238,2.39278040984545,-1.60633634739948,0.327581817142925,-2.16852790366198,5.46856230394805,3.79612115299079,-0.360008381268916,2.10000163703107
-1.63917022583782,3.10088269071482,1.99619023481629,1.96341516764199,-1.13723163480247,-1.16282410131578,3.91078000372091,-0.427866471755965,2.18774967989407
3.04009158275644,1.3915394141326,0.219397386230917,1.22532491335325,-2.4376227322287,-2.99784675539986,3.3089640311463,-0.341882709418402,2.00937956510308
-0.932317949147035,2.27201254975143,0.259788487268726,1.88947732451103,-3.12935487437403,2.87583563677357,3.76281849070696,-0.765552056742474,2.26438644547374
-2.44932434273806,-0.505166404490277,-1.59686001782643,-0.631113302039546,2.62979511745126,2.12433620046279,3.60941049728847,-0.378665358852452,1.49843443399738
1.55194985291536,0.428763022702105,-1.85345757687979,-2.79605895759367,0.311496886619778,3.66326474800081,3.30901048639609,-0.290206922891318,1.80713857624523
0.140087756356649,0.970746829905735,-1.63321939823406,3.06033545211802,-1.58002153764569,3.13977780037827,4.12333180813132,-0.257259022042899,1.75444469739934
0.487050153961655,1.25743911471014,-1.62615125724325,-0.855870447519628,-2.8563968828043,-1.37463570963877,4.04079192316448,-0.400449614634859,2.16004983283082
1.75026080250931,2.31110315289429,-0.968349964970815,1.37416231489586,1.66080543374986,-1.4887209901579,3.54531479197171,-0.390834492876751,2.58506111738579
-1.08044447730401,2.65409591834473,1.1443290249506,2.57867133954951,-1.14661882120415,5.97036952413481,3.95431546685835,-0.458430516561775,1.99241022447783
2.90115946632103,1.28944050997521,-1.30710820885408,2.06405999501523,-0.441233786091178,2.22964187400247,3.36349042957641,-0.752702512861983,1.97004441096612
2.45694095280854,-1.76226702600786,-1.039711085271,2.40793484302197,0.956925337065079,-4.00401786494932,3.71642426038491,-0.817847618187335,1.62409968766597
-2.00785698319004,-0.176509425810173,1.62467856368383,2.38241432522878,-2.52419629815547,-3.15523487311165,3.64254197882167,-0.354772452149558,1.74795143310498
2.6332271340319,0.986402567666289,-0.592942791922927,2.14769476900501,1.58772468763645,-0.671177550526329,3.09966208755075,-0.281742944751801,2.01350932396063
0.979094956240767,-0.610658251867778,0.0614286885537587,1.93679405853677,2.23825533865383,-5.59534880630042,3.57151929505214,-0.691050794884034,1.37253789256459
1.44915161990193,2.02844296143884,-0.32518906874678,0.542404149775899,2.95012698729357,-1.70840993186707,3.86036650351651,-0.00795542341763292,2.27221375049637
-2.72073586093609,2.03891603157664,-1.82927215676983,-1.23598685569411,-1.92249512379885,-4.08898726950537,3.79596299034282,-0.463373630362683,2.42138286788625
-1.70690155049058,2.39369891775617,-2.2477857767213,-1.45822437992091,0.630754654460589,-0.00359538040930918,4.00956911851594,-0.596678875699478,2.2098502447186
1.80920219706628,-2.86430062602881,-2.75387910779238,1.17208962454608,-1.32185397180408,1.63767081099617,3.45270126318827,-0.397318522049503,2.1400703168244
-3.00914840524516,2.25708845338423,-0.0239396591220205,-0.798596330929315,1.02255454214791,-5.87934342108668,3.32832783411822,-0.757666780003021,2.00887673661379
-0.0689687074330081,1.26033195940734,2.04490535248599,2.22059038846087,-1.35848334700234,6.23024647199869,3.87794731624761,-0.27711449230159,1.96250510075282
-2.84229083682079,-2.39589642709254,-1.18579013224059,-1.25546699947584,0.688241082894765,2.29795774777438,4.05759477064956,-0.670158220796017,2.23716933094584
-2.63754790138527,-0.171065805002124,2.15112271190741,-1.08121852312119,-0.0605203068011906,-2.61241946945776,4.04578891898437,-0.694553420820092,1.95791829664309
-0.113198600979273,2.88431000316545,-2.92961137787102,-0.216390577312587,-3.0448994550308,-0.914560455578592,3.59875559016993,-0.567715864726094,1.92953971847859
-2.52981929796673,-2.8342846061774,0.920144988556364,2.84729073078839,2.02654765093447,2.95149606330605,3.83898553128021,-0.358544923834912,2.46844867513886
-0.260469332864474,-2.32932520497379,-1.25838980023479,-0.250960440363555,1.34750121753213,-5.88606921453894,3.25921880244309,-0.148198484476371,2.24094764164557
2.03663632429512,-2.05822210495826,2.91817125000422,2.26944872074105,-2.37331354907231,2.08057279657564,3.8252685385109,-0.630583767157659,2.0094847597307
1.17988717749977,2.46111462274101,-1.21520877819194,1.36042361567478,-2.00919633665861,2.51384965770207,3.66574080786658,-0.414393435258912,2.05869882659647
1.25402244490394,-1.63447577721522,0.701210085773185,0.497416952633269,-1.58594976394927,-1.32427788571587,3.41620610623002,-0.931096783246857,1.88073264886845
-2.48340013718316,-0.40200506540958,1.42160027844887,-2.57831326281027,-1.55841296983926,2.78339665383592,3.99530077684141,-0.389163385405506,2.05311748803498
1.04498080456472,-2.69498127176808,1.49053024171078,1.74660798556648,1.40961621585832,-0.638459224161499,3.6411833042137,-0.158622226564325,2.48842411927645
1.59476781172363,2.89797209615645,1.55548145652266,1.73227142759272,-0.395904101762096,2.08110522799969,3.30533428036262,-0.267745245974009,2.23464047181976
0.567389167981636,1.07707397289836,-1.1453265659785,-0.952532729068855,-2.02858861926517,-3.14671907618021,4.14511207221294,-0.136695499189242,2.14962303822225
-2.57354491570924,3.00261949078423,1.00575382899099,2.63329233606382,-1.75659368800442,-5.89161847697848,3.61663343656414,-0.601608590870483,2.02543831028771
-0.350961791869367,0.120187596053987,0.457954580282285,0.255019620176897,1.20655468064609,5.95239317958214,3.49760261226533,-0.135105720812235,1.45719896295798
2.29539578534147,-0.457490939912751,-1.95147872332648,1.82424692619993,0.356552505009637,-5.10608485531726,3.28063640283262,-0.543447697719108,1.80586920283094
2.55920372909006,-2.0729773376438,-0.891283771935857,-2.66562202533536,2.36723757987655,-3.72078174026759,3.89818948161196,-0.513974610595732,1.94831340997655
-0.43046291156652,-0.94801427703982,-0.486067113174001,-1.11769484410586,-3.0055640030505,4.17334055653296,3.27967342905848,-0.402498225519442,1.59633451470687
2.45704490205739,3.03609809847211,2.37004455649979,1.80095261321541,1.33032362461899,-3.38394517126351,3.24203604789303,-0.32830918737494,1.94507403891979
0.897578215681802,2.69569150361213,2.48627643590571,0.608263420066976,0.0907890829101357,-3.34812244832698,3.51251396076484,-0.0443411296072734,1.86408004965784
-0.776795160834873,-0.599080640358673,-1.11446692468597,-1.74920981953889,-0.222201782229617,-5.5831596380036,3.89818726482032,-0.114976747234957,1.4947187197295
2.17257493066209,-1.23100206508107,0.187195983129745,1.1800646835069,-3.06038221011353,5.05672411529355,4.05152542661048,-0.753325158363104,1.755677344917
-1.56593870295356,-2.0357872800155,-0.454039274135843,-3.05082624381384,-2.95721582263252,-0.216421061435753,3.56071440905775,-0.0797067019431622,2.10515314062705
0.918532169273202,3.14119215260412,-2.66823336354345,3.07800490259151,2.70489479440932,4.33336437561044,3.79845664896909,-0.459086777348916,2.01435425322063
2.89791058866118,-0.256544094789399,2.50389748672521,-2.84202784607253,2.97455848874677,3.00113215476784,3.81900295566828,-0.353383151829418,1.80014913335003
0.0434399009525497,1.14227986154699,-2.75049651154779,1.46457348717893,-0.98907724709458,5.71727933560775,3.83069983784352,-0.178526777967331,1.78188843424416
-1.67320116840387,3.09174082715719,1.98990707893877,2.0767333915664,2.21527141098756,5.69698815964819,3.62935429831427,-0.858587149871344,2.16815645206336
-0.127480897510728,2.08330434633572,-1.34518986456551,-1.16348926205777,-1.22794550201101,4.32035739248569,3.77512262198329,-0.258817488265924,2.5215415919176
-0.2028288173647,-1.69544001936857,2.99218354610015,0.584564405266703,1.61104812226509,-5.08668731549458,3.88588261845835,-0.3866081845515,1.81425545399948
-0.12924118283526,-0.647095613697908,-2.9817673615654,2.29476994852361,1.01222518583048,-4.42398081389343,3.65469197547567,-0.191497150735655,2.13561230349778
2.140498032021,0.0760857449221004,0.460673037681854,-2.80866310646336,1.42798009383566,6.062057679911,3.43517565070096,-0.375978511887507,1.55666192230806
-2.47005986323873,-0.627510872045271,-0.840973338625443,-2.03487979112289,-2.70832255994152,-2.19837127161703,3.78638620498002,-0.227850482101531,1.47406055388243
-2.72853363801632,-0.374538062243645,2.32305486208048,1.41277079576074,-1.41247407159719,5.3100376077505,3.91206168108331,-0.518869698743778,1.64298140339686
2.0210012511457,-1.83718411512835,2.73955947417081,-1.53832192548201,2.40664647659371,2.12893766129254,3.82424744011723,-0.566170035331162,1.91658913902075
0.828054275255887,-0.107618829152536,0.180821695171693,2.7737391129896,2.40767598573642,-3.67233877756008,3.80946141012352,-0.415846549941984,1.48014363913222
2.17966023950089,-0.124215242922631,-1.15638823232868,0.804294692445538,-0.144587418964731,-4.66075737062628,3.23398439811055,-0.481683035055199,1.63315336304296
-0.735766453680197,-2.98636401760844,-1.83707199661424,1.00127556728131,2.83354101977741,3.05113850715579,3.36878200022475,-0.317621775279731,2.00514249300325
0.0646295230746139,2.00913753817083,1.43222663016351,0.201790254886589,1.28943297380591,1.06708498837341,3.88328309287909,-0.250515042490836,1.6385858683914
0.127914072659192,-1.93889564794581,-0.0171008129875454,0.876960349526617,2.55478186842406,0.326773377121921,3.14926653188995,-0.60677523182619,2.19271874810195
-1.50481680449972,-2.59872564006639,2.95098218470659,-2.04655816366128,-2.15129272019913,5.89883735954591,3.6696968189646,-0.457226962787385,1.77396306650476
-2.97716934154548,-1.66530890158987,-2.4615470144826,-1.04698406114464,-2.66861716561979,2.85195508440265,3.66777274776234,-0.354095991616783,1.68667659064942
1.99500017681051,-3.09698149112819,2.4902285962922,-1.89261819879689,-3.05009723619447,-3.89990221438407,3.78181297803879,-0.355271270145065,1.95308973907438
-2.26558110327112,-2.84036420809579,0.896322768494362,-1.61436684995762,-1.01843676059375,-4.62347060482103,3.75032753529289,-0.816962251797556,2.47073148763068
-1.08744986100175,-0.344144757831863,1.69704568489226,-3.03469464340905,-0.0636520279165964,4.3717122581775,3.94975733809168,-0.115335779776711,1.81398812504444
2.59279856023148,1.61015049261228,1.48724104091192,3.01013177869815,1.3480514153299,6.00246672641073,3.14090946869866,-0.342404362872014,1.80656177462496
1.59941320177687,0.0308744105952803,-2.19850403515826,0.254808508439412,-1.50184313002378,2.58524118296075,3.52570704957252,-0.417903262206218,2.07158701102285
-1.16500394950533,-2.45413671248344,3.12318868337652,-2.83396721296586,2.58079611378259,-3.51753899769469,3.58775218698028,-0.452132715748532,2.13828503856516
-2.03224518509926,-0.890750303505557,0.532667555008374,-2.38558987719924,0.378668737004236,-1.68646196192118,4.15349220566614,-0.36149113474701,1.78289697041478
2.95972466214232,-0.064374082769695,1.81250760130332,-2.80917936347186,-1.43175490120573,-4.98490634581376,3.79636291208047,-0.659106738164271,2.0222066071595
-0.317694027548971,1.69585907239234,-2.37621060992818,1.79663258424711,-0.965485748680613,0.525361062313086,3.99747526357375,-0.248978891810531,1.95862824809197
1.6640914999083,-1.06879530249131,-1.72994379690248,0.323936436929805,-2.5213273517823,-5.42482603479228,3.75025332871984,-0.375205827910007,1.75665548582748
-2.30288867656352,-2.97460724161722,0.843911610956841,-1.86736120002885,-3.01589332604336,-3.56351380682749,3.46982209259918,-0.503724734740888,2.28854646343995
1.93673003451915,1.04233540875591,0.0446278489061411,0.318286167968039,-2.05120207004953,-1.09942366998229,3.50590153232439,0.0371522147253578,1.90172033161655
1.88429220824653,-1.82540113275803,3.01030701577225,-1.52100271885796,-0.150170786721441,-5.61861624410308,3.31780978286583,-0.571913393002237,1.91020611711737
2.36833202751554,2.76556335747117,2.89223208574005,-1.3949998362146,1.94848164030015,-4.99264336141263,3.69515154183019,-0.480688128964948,2.1894684875589
-3.02139905711193,-0.588695340142828,-0.209221788395654,0.699693354934503,2.04910022286713,0.583711754305829,4.08970407913412,-0.401819311229339,1.41004212728675
-3.03195585018053,-1.95285197765556,-2.74432755640298,-0.783570012606701,-2.525012093543,4.93405760098124,3.61775236916846,-0.363943703294697,1.80688602338258
0.289720956852125,1.55828864321448,-1.85927943602137,1.8139802920599,-2.88353917598811,3.59792515041266,3.8394231440792,-0.530008157964826,2.04641957173761
-2.42721602205129,1.91574028727986,0.782005497729378,0.515154701570627,1.85069586019259,5.70591130769899,3.347938907147,-0.83597376315747,1.69193318690973
2.2467434625997,0.741748383372771,0.700611027524598,-1.59292863101157,-0.11951162012729,-4.46925965526937,3.33010099480616,-0.628200531099183,1.54071779170411
-2.94268673482552,0.210490879869002,-2.14578701665818,-2.30557074357474,0.154620756339229,2.43802676435838,3.61209143287286,-0.856153160221004,1.75421732653431
2.88224992147364,-2.94239930536582,-0.37395615536905,0.395576360400712,-0.0117128936757904,-2.03265404672106,3.83248445531376,-0.890518090411874,2.39907905920275
0.989694985469313,-0.944206626034732,-0.546593697603321,-1.88391782774989,2.24878577047487,4.54387636603925,3.58543788571921,-0.630319427452633,1.82676336541274
1.13021302741585,1.23967652284159,-1.22238503246654,0.338940754867499,-2.33081115410963,1.6168269537546,3.80197724935703,-0.279066034120459,2.18108966936592
-0.545170807030619,1.49311570636706,2.59880509432534,0.836888368992113,2.55191348217169,1.36321663100871,3.55893443949819,-0.482976911282007,1.78662602925026
2.10777694152776,-0.445274086414565,1.12522030406339,-1.57778367497139,0.585526260013281,-0.344872737356412,3.47775503995425,-0.783358801909048,1.79035146814576
1.38772684528934,-0.134223997957684,1.90657472272082,2.94544293781179,-1.80298608689954,-1.53341861074347,3.63576303185905,-0.443054688643814,1.94266903467086
0.887209886696428,-1.89970155431246,-2.39042015590616,0.106770460470865,-1.85378995528514,-5.97315403240116,3.70798125451451,-0.319715270079066,1.9229854954851
-2.21310122745585,0.753626427147216,2.7705648982943,1.43520992585116,1.39440201926064,1.20971868409312,3.98262020763777,-0.315360898775894,1.93673197621316
-2.26531410819236,2.795138286176,-2.58895846109131,1.04443809993877,-1.62009972568473,3.35323085196226,3.65468216416922,-0.665091148944023,1.97457871106431
-2.4138806620261,0.101606250891355,0.0394123009479883,2.22651615989382,1.10030657425537,3.33826791100036,3.65393487029605,-0.815409918637794,1.3879454467035
-0.795411383032715,3.0629272261383,1.02490427407912,-0.17506390710609,-1.38061621226056,4.43421734742907,3.95667658470217,-0.495639925270725,2.5576083136239
2.44989562315305,-1.17529847440286,-0.841549285950782,-3.0851411003577,2.73725919574061,-1.82169038144871,3.86813689941028,-0.470885387914246,1.70444193593556
-0.49263634119343,0.0180343062713648,0.475318831134726,1.86064289335067,1.9950638259151,-2.98512609648956,3.67796036009987,-0.4129116552811,1.25928551565232
-0.544243236259264,-0.00975765288330432,2.18851023192101,2.06265833896429,0.931105946929704,5.37796333779398,3.5156893069735,0.00385834183520756,1.78225541340179
2.27726053707588,2.12951209713336,-2.28507381150744,-2.94556685080641,0.0666232521097259,-3.83212571682084,3.3259252477642,-0.624327168689663,2.09649566500412
-2.05772116161892,0.401328631504609,-2.7005814965307,-1.43981355979697,-2.91640945650137,-5.90415846585521,3.50475157450156,-0.537150626373628,2.0055058168718
-1.71479348692165,0.69768035008262,-0.772735442655211,-2.58545927879801,-0.868522429306019,-5.03177271248399,3.94238495566813,-0.869000092351118,1.53717555127306
-0.336241084479312,1.33727701347623,0.785012523107873,2.08867382827769,-1.57990403377474,0.135276663484867,3.87423098799202,-0.375055324554018,1.88849925780538
1.04457455686214,-1.69707907066561,-1.79322292597674,1.43556322721229,-0.334606432260856,4.23161305948336,3.30594819344412,-0.368936365033874,1.86283981165162
0.300129458971026,-0.358887075849939,0.50510868846,-2.28114427094679,-2.29864371505562,1.40264201516343,3.26015144182139,-0.607568218371381,1.66166500063641
0.581751572803362,2.19829890477908,0.384378661869514,-2.16934711009633,2.20340751291953,-4.36270973662945,3.86384324517788,-0.377568194110886,2.12167678633534
0.875811139036797,-2.29650618477146,2.62707918016942,-0.505010455388735,-2.81029154927261,3.9867794914754,3.8717203307415,-0.412187152877735,2.04957832422471
0.557447924916318,0.279189990510775,2.255286583894,-1.6111940920693,0.364484115961015,1.33695207432631,3.49866213029021,-0.135311720344857,1.82014554713011
1.2343954277777,3.01883462219026,0.357217926680884,0.0187604520064761,-0.940917142791315,5.07982197653859,3.42258876709133,-0.393237907416612,2.5442697392589
-0.702973427946783,-2.43458753935858,0.308024658580788,-1.06814362480918,-2.65664322726062,-0.762739342252214,3.40382600674256,-0.346301622226129,2.4490634405065
2.33935987898109,-1.08476376163763,1.36917259402811,1.90756485197848,2.4001300952136,-4.56207290056681,4.11004519995652,-0.780577021265448,2.00376853167474
0.496080686191663,2.97093184685844,1.87655258716614,1.36076670906413,-0.581595314685961,0.803995699840401,3.67174189640135,-0.0525775369042567,2.22460797924795
-0.643078813080261,0.926620032967405,-0.727502093610851,1.52445000957651,-0.165723747798937,-2.8654796194632,4.20173409686854,-0.353373096751138,1.92080817458608
-3.06379782162784,2.35877948666832,1.8554492612532,-1.73924259960151,2.80179685326314,2.80096815903437,3.52900913566249,-0.345535962023712,1.97210161934771
2.9040308776114,-1.93795364052235,-0.183294068267285,1.778929192016,-3.02231137995779,-2.9406409366706,4.1126396018359,-0.421992067521543,1.96670342289878
-2.72173043113825,-2.86552904812491,0.723207200836449,1.60724449278709,-0.924048687413401,4.08387423866716,3.93531367584905,-0.63715993209424,2.21247005416406
2.87587094541883,-0.066554963930455,0.55462654818268,1.79500415917089,1.07283734599774,-4.30932798963721,3.76452272383098,-0.716276091927156,1.27487109234522
0.576828060719022,-1.31617561060601,2.16144432570848,-0.843016364489734,-2.46465993787949,5.4982939348281,3.59800781533246,-0.601831042941462,2.25149124489769
-3.06924530863779,3.03043839661443,3.05701668084378,1.34548660297817,1.50421295380998,-1.26976234158185,3.66491260612717,-0.619145055644316,1.70609539894626
-1.87209964815351,-0.959383420388145,-1.78492952106201,-2.42679878100258,-2.65930214231338,4.98059855225304,3.62116661034312,-0.296964112711895,1.56166280880808
2.767712406699,-2.71755095713871,2.56786001647829,-2.92233663217449,3.00627043492909,5.23342527329638,3.70629409286504,-0.324581758263671,2.1276237644015
0.551875540212522,0.807280155715056,-1.85890127540017,2.64903348764424,-0.0829695028627149,3.81119780225531,3.6614171661377,-0.00892996210707639,1.88061114267453
0.797527443111854,-0.424327585369674,0.614564190307143,1.24956508563884,-1.6517860923244,4.40044941988147,3.61215327917093,-0.39603018743709,1.57931733196831
-2.63809870727128,2.21610446219468,0.124694617812249,-2.31296554093532,0.524492285825497,-4.37280413032925,3.66382647575223,-0.855307849242856,2.14026272005376
-1.02000777071818,-2.69784624940736,-1.32705394928921,-1.27550815489202,-1.91501949434676,3.69732725667094,3.4148123497049,0.057337466867982,2.10004543183844
2.72253774334242,-1.86293168161576,1.07465960358941,2.61677246263756,0.61548775614953,-4.99300794943979,3.97129665146612,-0.937553617512477,2.20135531513394
-1.80358366373626,-0.611506204007028,-2.34059625050032,2.91701056738625,-2.9898348461262,-5.51708941526389,3.56809588801396,-0.417769836954533,1.73101756810705
0.182348805423834,0.940902028189337,2.13292105111277,-0.442877482885971,-1.31369194271389,1.06333118646758,3.55724770605129,-0.254430107114105,1.48306811397343
-1.94079125440865,1.89104868556013,0.452755160316642,-1.3111926292263,0.228223464716975,-2.18200684422717,3.89788254604674,-0.974201750078308,1.89216343840501
1.399517329083,1.66607885615711,0.44444673749317,0.981202287385305,2.26601544823143,0.943380178763319,3.83808232537776,0.146685582778704,1.78745869781897
1.16395013894643,2.90644146487653,1.11645835587374,0.557315770917013,-2.27391385823482,4.69720911950103,3.81266453691244,-0.28841235886026,2.41991125412389
1.82572806886055,2.71112155910131,-2.04741212314974,0.729707736999261,2.92038765805594,5.14327338553357,3.85517399933817,-0.631003297355406,2.15730425503059
1.96410534823785,0.506724407339779,-1.94218377637419,-0.822633354260622,1.32409776926516,3.77362712856715,3.35418007766549,-0.185881605762353,1.65491945702527
-1.31428460865067,-2.36710100720724,-2.27152884248165,-1.78732152728448,1.21568242598899,-3.05859953462008,3.84677709738499,-0.181887718633647,2.17036898349261
1.25598846208537,1.44511516594774,-0.792459313201922,-2.11566482055256,-1.3726998453406,1.84980575770543,3.70159365461931,0.248907990936989,1.98681026143706
-1.17786484440962,-2.36217502379122,0.759489920328496,-0.937966602255539,-2.2842349446307,5.03592023078657,3.55163111290048,-0.262472263347894,2.52479450778571
-0.252165734303545,-0.834440040673234,0.716586075123331,-2.12890037116667,2.81963858452526,5.13718824919042,3.39968647368692,-0.486727603349752,1.79234378428896
-1.48301284597692,-2.31337016471116,0.839368398851574,-2.34537962935276,-2.74598427506103,-4.21143206842405,3.58406600518478,-0.430723528683518,2.3384560993477
2.64538078515101,2.96052697208446,-0.592756377406185,-2.04464121997372,-0.460325246116293,5.46200456049491,3.48422800741028,-0.744056942972241,2.50461650029852
2.604698112014,1.25418727888431,1.75224506047916,-0.258399951011339,-2.70984534028312,1.27532521275581,3.59174250391074,-0.281205703655564,1.53799412208116
-2.89043452611006,2.12392273648211,-0.779629169144012,2.83253466114153,0.533292145113932,2.85938019000246,3.69055320533307,-0.810029448097662,2.26161958752486
-0.298595590453272,-0.423990654300626,3.02831217852234,1.20096400811799,-2.79426036384246,3.35436254688428,3.49057061124908,-0.507464876092771,1.92804352126173
-0.571876570838256,-2.24968302317894,0.00359947349492895,-1.57453637744677,-2.10934078995081,3.28062867972842,3.29893237446632,-0.204223458846644,2.45492000970517
-2.52961341594306,0.801259853683494,-0.796942939956993,-0.632707185882492,-0.0304589328503386,-4.82135694566186,3.54336902820486,-1.02617315872785,1.72399426618507
-2.133811070507,0.703022053460954,3.08122790864531,1.16023333303668,0.897030676606525,1.4516573975219,3.99595616811184,-0.476077110874838,2.08715375393816
0.164461059201591,-2.37463989570792,1.40999365593067,2.83820256935012,-2.26008246164725,4.02920129841009,3.68375508884909,-0.496003278919966,2.08035174413976
0.849633096827584,-1.61496948078481,-2.8086788903113,-1.20330929095133,1.69171491858404,-1.49616728153234,3.3944475490018,-0.598384442031987,1.79655491001738
0.875039218894533,-1.44185878470017,-2.40716773330407,2.84768070646611,-1.56623533812508,-4.99881290945702,3.36572919664234,-0.595295628878479,1.69421604285151
-0.484351600166773,0.58620289212278,-2.07557568483517,-2.27104644737909,3.1197713136998,-4.30644589607571,3.87609835229012,-0.693175049277398,1.85043791087645
2.55256592137175,2.71172499553035,0.0498059372563424,-0.560383333124482,-2.96437772039804,2.41413133634349,3.54023370104758,-0.205309417554731,2.45848929661879
-0.566359685495587,1.86185343790012,-0.367957422382579,0.835164211626869,2.11189410269642,-0.658740024275422,4.22707396512097,-0.781992162010752,2.19705703057627
1.57737562345563,-3.09414607307694,1.56347080518122,-0.962406754285925,-1.3058567050054,0.921292822674911,3.46876460219162,-0.0108928679661459,2.29431625864871
-2.88649728568317,-2.98461568792717,0.0903865817551806,1.50238299052678,-2.67463919859137,0.418579813157339,3.77713531026109,-0.325876584563212,2.27489262373552
-2.98280843645819,-2.51925875222342,2.91894567774303,2.99090517778414,-2.89021898733969,-0.564848882884698,3.73324790611331,-0.317452947134147,2.01970746395676
-0.829090587868031,0.608381617162553,-0.365809053673232,-0.949346087774874,-0.611487106960484,-5.80925342306482,4.25278891837381,-0.551030591705428,1.56284411612634
1.35019736115523,-1.48407181969135,0.165107986014519,-0.628387854346648,-0.487876050717129,4.75078211614029,3.21182977742415,-0.967785638619855,1.88973964216962
-1.4700045574903,0.897368934415353,1.86377575404895,-1.38458189544805,-1.79425335638137,4.08701055689083,3.72033859557185,-0.214963245369198,1.56461413096708
1.1429669391215,1.4816783426518,2.11487311244967,-2.08792805160699,1.69797801843088,6.01162988472695,3.72689473531599,-0.110217179037475,1.91649774418207
-1.98606632998462,-2.12122110460471,-0.26465064991228,-0.486424474528151,-2.84021039320016,4.38188030694193,3.78424291628758,0.0747882714415489,2.15599466468139
0.425680581128071,-1.59910832453444,-0.63372230726308,1.84556224014979,1.20427581790057,3.57897184355162,3.14441732953259,-0.439819946337666,1.58091950017304
-1.14273657533127,0.32831131729874,-0.0300632667927636,3.01188693396441,-0.0996372117757498,0.277683848031418,4.08999749033265,-0.395646814481757,1.57427823147006
-2.56034514705757,2.36382959741067,-1.17807109936802,-0.148066306853212,-3.12461193483066,-5.65270692367615,3.57111577486333,-0.372240246724671,2.37745787061359
3.12896462170631,-0.946653698525347,-0.336693038293659,2.24805372248972,2.4169889837364,5.24039749632665,3.91997252041208,-0.401140843003393,1.44885345109315
-1.01127933458114,-2.87732019018735,-1.99031003035295,3.0565262484717,0.797810016828433,-4.81519435871315,3.91284988912381,-0.251015558317002,1.92782897990511
-1.27276803605956,-0.109981128230489,0.945666009061496,-1.28436807440547,0.669437905338052,1.5517163996133,3.94925470824635,-0.211064679066141,1.78475835954212
-1.46149742931133,-2.85887250220252,2.35209642614987,-0.624006246733159,-0.754637208993011,-0.953934895845263,4.02767443174553,-0.735325025511111,2.09379534458917
2.680027748312,0.363777675897227,-2.89849416555665,0.00316080468455571,1.96808421210031,3.11957665331561,3.41837592533624,-0.349481266369885,2.06464544357756
0.494449644714595,-3.11309814135931,1.74710284754156,-2.3515391770873,-3.00025432049398,-3.1136537582463,3.86944917181482,-0.49244472777225,2.0652032870527
-2.3072588133371,-1.16137882729156,2.2809502061041,1.66200631618503,-0.755448386781287,4.10939052725196,4.11253148782287,-0.436847464722637,1.88666351342259
2.65293189006341,-1.49108825497763,-1.08327311767528,3.11783941907122,-2.93370845361761,-3.10493988756205,4.03595875454653,-0.496089712899383,1.84912514409015
2.63719438363544,-2.89966005441788,2.91123778435087,-1.9555384126572,-1.17911033681421,-4.0697269831656,3.60182188149348,-0.682291222272225,1.75182048963292
-2.89422128115206,2.81555494072179,1.16511597044969,0.536471885059103,2.67544955827781,-1.77867401441282,3.23626906269282,-0.468888444662532,2.13519176028862
-1.07750724839512,0.0118101099553445,0.670432790457609,-2.13220883289423,-0.243492076289506,4.91517065344465,3.90855783423795,-0.0651349655143219,1.58131671683431
-1.77987083361558,-0.058017511123996,-2.80373325350706,-1.33829759441246,0.698262781059737,-2.1375581681818,3.99105853608355,-0.655104826350557,1.73274890869498
-0.748997334524583,0.301582978963276,0.790050281303511,2.27662632909913,-1.77228815931629,2.46675536936023,3.76140831163085,-0.39252231335063,1.79679904348997
-0.627254458579012,-1.64609280276189,0.545927763565351,1.26010055032363,-2.03771351293562,1.23065405138429,3.433516954786,-0.225436331020977,1.84866888269242
-0.45610467445041,-2.56493162733233,2.87779036024601,2.82317477400757,2.87700500242995,-3.62096060653519,3.65540040939981,-0.568498291846632,2.12675689983289
1.91198129135162,-1.08462891708677,2.96083342170095,2.97110693991985,-0.921868924456011,-4.55814057927778,3.41138533459766,-0.582098825682841,1.75128630872841
-3.09483176760542,2.3280326864706,1.29919378183826,-2.7941776806288,-2.41331170986202,-1.49545975333303,3.43613551122365,-0.384451649053879,1.86552689434215
-0.302704970615528,2.18998952431725,-2.91729554553288,-2.68555869083726,-2.07474153085509,5.19598936268921,3.57646322691852,-0.425092201696544,2.20516804255853
0.930812337702254,0.019300827735274,-2.98128410811482,-2.32097999957843,-1.95293541487134,-3.03812983320923,3.83222120620124,-0.198729829028965,1.98086327447008
-2.81017176714057,0.460654903530497,-1.62574775674047,1.73097868641039,1.85697653167716,-4.46418527424325,3.29604635140456,-0.623878328375921,2.05481797025569
-0.352089980894119,2.36961979022273,-0.419112335821955,1.30777695368942,0.729613461778886,3.36853195304531,4.0385262029943,-0.229668909626689,2.51920154263605
3.00368784179686,-2.76700347095908,-2.22027061637978,-2.27612880587606,-2.69518800462293,-1.03467454790258,4.0126779765792,-0.382888942260176,2.03108675242097
-1.39714206333889,1.50315080766311,1.60960013424521,-1.84561081354741,0.998457679788534,-3.06792854930414,3.98993761191176,-0.600947372896283,1.95778964358602
-1.88390649685354,-1.368569219035,-1.18828550024863,1.22458339029589,2.76907446130814,-6.22829080792624,3.6641810020283,-0.159888008118693,1.57411564913889
-0.609269278052558,-1.77136136157565,-2.584712587444,-0.594055511108096,-1.47805066780001,-0.336447821912964,3.92106739420374,-0.431836137704189,1.83988910788577
0.987639268949805,-0.14498817751134,-1.3051111590224,-0.624594507586238,1.77094012397103,-1.5828119903389,3.59320818885261,-0.408377883306134,1.41434230643639
-0.865458377450492,2.59995533856518,-1.44220986380535,1.52707626726767,-1.15900134528848,-6.06993878139625,3.9292196346146,-0.365571652071497,2.08366649317379
3.13439160685361,-0.237728243342008,1.89406841379279,-0.123077221938499,-0.609221810095657,5.65146266192581,4.07504632967163,-0.787728113932836,1.74289140821837
-0.921113856083026,1.59790014505899,0.914011984155863,0.315813666199539,1.06505093943198,-0.396565606309274,4.08603589845496,-0.538988472068566,1.56419264684491
-1.17551875332189,-1.40187978267621,1.21891607445029,-0.536090500564435,1.86122860932848,0.547262089878931,3.69083865508282,-0.338242404486111,2.15320931248803
0.958429101860343,1.23422092949144,-0.614390798277214,-0.61923172935319,-2.94199507737935,-2.07134104540973,4.09795138063145,-0.0827736355872049,1.92295338753395
-1.10456898308231,1.77940947935375,-2.87674722444431,-0.0533460222211635,-1.44502900383956,2.63980383194854,3.79412293456546,-0.276385704884416,1.76549357544811
2.02980134155522,-2.35365113212375,-0.102296936370824,-2.57804592923671,2.75375154317939,5.34527932615922,3.90179275329263,-0.653917386818142,2.1302321147079
-0.855351658903531,1.8554166341677,3.12765376188937,-0.12255582581166,-1.23386468723148,1.88224756441018,3.85202509172835,-0.280156920145576,1.70131537389171
-1.88659123375436,0.513137914639801,-2.8695389276777,-1.37741855283143,1.14281292945943,-6.03553531365568,3.83812208490341,-0.737704367202735,1.75232636136273
-1.49467665622027,-1.56072771010983,1.7830224722839,-0.50110812935915,2.91086959769217,3.72512660814448,3.5626845601879,-0.377590282986676,2.18492691428436
0.88892760644512,1.22628031639026,1.82741432533025,-0.783408360921095,-2.50741728412841,-0.890225637383489,3.79437650769179,-0.454188011035499,1.53646259832052
2.51569623974563,3.10867981333097,-3.08461216740992,0.944165981824448,2.20789935019272,-0.310736858766004,3.77880108403613,-0.493636203206202,1.77406396532335
0.8150621737133,-1.18517505355446,2.81132477776651,2.21065654082743,2.16330555278841,-3.64064376979825,3.61904455814419,-0.552277129215492,2.22023619995693
1.16003679543944,-2.59645900658396,-2.42619791671941,-1.02443500530622,0.266934930196773,5.11030119715223,3.23219619063972,-0.52620350927403,1.96143615674952
-1.59593802386839,1.9678371498827,0.725424284251324,-1.23155615523531,-0.341477884220254,-2.15017012111561,4.04208827832863,-0.98860963239483,1.87526509657785
2.92680468734105,3.01030731397738,-0.200322450670655,0.467680402333424,0.713073195159287,0.226103401614464,3.48815013251684,-0.7367746745401,2.54382069529644
-2.24851118816868,2.21605968118735,1.54481000461277,0.399163953702856,0.736441987165879,1.16957705206722,3.73689097102943,-0.880300313429252,1.72305901605057
-1.47514324603713,1.81143817445903,-2.26519198033446,3.06965491123377,-2.14067245396575,-1.62606401987237,3.68581755285877,-0.715068894131636,2.23089559315792
-0.390023699422251,-2.89905938524318,0.690667123856675,-2.72994318652251,0.599611452539041,-2.46004105420036,3.72357662662011,-0.0833016886184028,2.27746301493596
0.182518414877008,0.908754880377108,-1.92849249789054,-2.48356936319559,-0.699515679144302,-2.16294976041128,4.07973767021452,-0.0531235515418525,1.97051031258289
-1.36806610309752,-2.59885769596679,-0.424596531074625,1.80525721429302,-0.979010442172275,3.79122592865232,3.91956997785734,-0.266913726127957,2.09989224257945
-0.103976570281723,2.74568294456269,2.3120875223888,-2.23083369955681,2.86266903033457,-5.32396930722095,3.79761466000211,-0.58347028135059,2.04655192897393
2.51273442402484,0.211934246449256,0.382112741996588,1.88732965538448,-2.82046324976143,5.43694152825384,3.69536868639135,-0.307519960385099,1.57377607492245
-0.453042088567718,1.9427369301122,-1.1055280690242,-1.66106657712453,-2.80972757658276,2.21412760572653,3.96424596299931,-0.704155266498045,2.32701023682939
-2.77352384819661,2.10063360028313,-2.12494098787858,2.94352832172191,-2.34104695975224,3.22234663082249,3.46251379609629,-0.481309674443892,2.24405705660329
-0.00271847134823355,-2.32576252851425,1.28512877065395,-2.8753808868442,-0.207041911700354,3.10099763267129,3.63652565431442,-0.0642620196960407,2.18788932411146
2.77262249522615,1.52514658675737,-1.29573410880461,1.79095351189914,0.232278524458069,2.1306395375545,3.3427960008328,-0.721905087424425,2.22301066666492
0.548277222068445,2.46532439545022,-1.70068858566062,-0.639030350536159,1.2797187125399,-5.16775839498018,3.73954622476559,-0.19714174246973,2.41203244684621
2.33313013858431,-1.90248849401621,1.44763837667221,-1.54815445847794,1.87636773020793,-4.60003018677399,3.76225767065087,-0.576215066546252,1.98097352138272
1.26395313686306,-3.05101542588318,2.6258335862664,0.910798999021848,-1.24452791798368,-0.797515455479796,3.55164087054634,-0.213642971315164,2.2586897554102
0.836072705648468,0.475265632952882,1.97622525594661,1.70618100550028,-0.916720869325075,4.21235202558429,3.57074914133146,-0.168635621171972,1.66484996701986
-0.225643532142531,-2.87645043419304,1.32895939156602,1.6403316615895,2.73300317876334,-5.96094395544892,3.82593659601349,-0.592645233378149,2.39166582369179
2.05427834698637,2.16698653817875,0.917582038083984,0.962112596162382,1.01180775972379,3.84322517775457,3.15444925890043,-0.0370783875473387,1.90556257483106
2.71570594774456,-2.93931867474068,-0.773003123281379,1.57320578817586,-1.29860556957386,-3.12553711055303,3.67508032887344,-0.663501865145909,2.07621443623178
-1.93626819283309,0.73936144748349,2.38299316758534,3.06737532395261,0.195046973653966,-0.45823873196574,4.04373123064759,-0.597486842298237,1.73083937701246
2.78026651129745,-1.05024628014787,1.93894608477357,2.38366159657352,0.73319787390538,-1.52913519572322,3.96140831432004,-0.913305723289366,2.05539471732656
2.61796027524003,2.09855525873729,-0.217353282106095,-1.001213241381,-3.00021529477601,3.83440739812934,3.34203832044438,-0.103232696491881,2.20947342292447
-3.07148934212022,-0.0607793149942957,0.426287002894698,0.226514900453815,1.12030711291895,1.52437561458342,4.0716517405711,-0.647105457228585,1.49491428829114
-0.856014407219804,2.83166574286561,2.46943706253659,-0.487738284858182,0.573579653300877,-0.648022660130866,3.9631411482921,-0.225437661614498,1.92637600350857
1.38174931326341,1.72028309440216,1.80207815450189,2.29704141099912,-2.59293400576651,4.67259838323828,3.82720649176142,-0.249653754369449,1.91467686493046
-0.106276093914803,1.70880418820623,-1.40176787552907,2.98700020289305,-1.85188943198859,-4.71403718511726,4.17445928286561,-0.420908905687394,2.06139456033768
-0.654944928268733,-2.2346119583163,1.13418836631254,-0.275822646603106,-1.31262764455163,-3.37393864022848,3.56298987829692,-0.0994315716572531,2.51607743169599
-1.43355926692791,-0.371218357266238,-1.90302284909198,2.31379253649213,-2.22646706584621,-2.38394514393233,3.63650803923446,-0.364838144815167,1.66000069399137
1.13539692347336,-1.60079219869914,-1.85331264436723,-0.746286057888716,-1.43272478648629,2.74490061306808,3.52181225940186,-0.388875556833579,1.53329161329209
-2.98543256193077,0.187829331726372,-2.15634891740368,0.285749783071091,3.08096669245979,-1.60807437957441,3.39816892147673,-0.366762006503594,1.91240589739987
2.7351606950055,-1.12960234284838,2.92741300289278,-0.918201649195645,0.0141172431907468,0.224075493362335,3.52407464558854,-0.803088213405519,1.94664083012134
-2.88052032149778,-2.71845335745456,-1.04786834949149,2.4088232467465,-0.519694302751246,3.03155054342002,3.92079995697425,-0.755513836839435,2.19541766879022
1.27531133750762,-1.80888745348882,-2.98095462535179,-2.36657926738538,-3.10098691779699,0.114239442208584,3.78067043963117,-0.577165025793001,1.88458011819847
-2.12526676015671,0.045494427967371,-3.03436950768799,0.745555901500887,2.0691166756749,1.553408658238,3.60406454522487,-0.561070272012848,2.11817844693013
-2.04793108881466,-1.78468327335897,1.88274253498334,0.381090594442019,-0.673101946229508,-2.28805508271994,4.10645546418848,-0.34102809709379,2.30487961811276
-0.659787125317525,3.02190854645498,-1.30617049821067,-1.61284644286718,2.45160933432989,2.2540510357049,3.64672622982417,-0.517690404430564,2.29423460809727
1.35197951317556,-1.12650212653674,0.720023436404917,-1.92965341158781,0.995547404553853,-1.24819289546332,3.35885600326577,-0.593451477267385,1.84005618229832
-2.50782584235872,-1.1328346270284,2.7398086374394,2.90932006302329,-1.01414031952513,-1.25419137330424,3.84439015405982,-0.644062508098426,1.76701292703988
-0.72004578234047,3.03668937287089,1.50471166355841,-2.37101226147979,1.08156135456998,-3.3010989303757,3.8557340394299,-0.265028829468788,2.27968794133807
0.738762804476589,0.596473993801462,1.91154285364816,-0.0862988181455724,-1.81170512859612,-2.15015467613505,3.56030693085426,-0.493221905845541,1.43032868234898
0.0862436036690353,1.25677604907437,1.99906501321366,-2.52122610308625,2.39959486643177,-2.94182025150399,3.96748101675578,-0.481573695543323,1.79679810915211
1.59757144685587,2.95317172800231,-3.03748523883234,2.99877790152442,-2.02889290889182,-4.2151595542714,3.65858593879966,-0.643082153547327,2.16848093971805
2.17255673965989,-0.638676596658191,1.47122513789087,0.782430058982558,3.01753951435142,4.64981127906398,4.0286622891019,-0.729481969745105,1.88991358546304
1.2189132426443,-1.2828462813316,-0.0186222279239643,2.36127758591204,2.35947605916536,1.99678284847832,3.60033136508318,-0.875285811980629,1.61901733137611
2.85621120922482,-0.113781300011539,0.504400582309063,2.37413774489249,2.83800679719664,-0.907998925313934,3.77818250892596,-0.360130802310447,1.45162145718307
-0.438183286944544,0.755607370907589,-1.73759009579051,2.65519944734205,-0.199881680045837,-2.83699950912932,4.0525735531649,-0.196930627796204,1.84155922584498
-0.139741932552029,-2.42387441491246,0.910822663721917,-1.03330971160699,1.88845924105143,4.78296759132614,3.74082503231156,-0.385565236391941,2.12909824002134
0.0679197929484698,-0.030459103111669,2.05072102743277,0.943857572680527,2.13183962125581,-0.721235918817867,3.3354030167742,-0.467531292180936,1.98259588171694
2.26455341921762,-0.820866869061965,-1.34286743154784,1.46048874454308,-2.19400678209534,-3.98222972839869,3.7360032495176,-0.496907915738498,1.83546266864232
2.10383715952064,-0.337811385954734,0.731518331510024,1.64954010769294,1.93493739216084,2.24952355324561,3.87511045399052,-0.814744588268942,1.40155656958374
1.62617306230222,-0.741633795582196,1.43554200926073,0.76616431245319,1.01806722248053,-0.178388533648723,3.44122967558868,-0.901334678386511,2.09267087817519
1.71403217412548,-0.390245513832487,-0.663306182968789,2.30598290307043,0.560515819046082,2.75080893258661,3.32385505245424,-0.356826858913731,1.52672918367336
-0.610895230017656,-0.195011386542113,-1.74759028493063,2.83167584828611,-3.13584068216312,1.13921459851955,3.68461092152282,-0.603122786271937,1.70794169759656
-1.50727305729476,-2.53194719326084,0.872965324149443,-0.617957594083883,0.152588669570735,-3.29035237676921,4.0737046825104,-0.44916830087683,2.38593323142741
2.47205361572016,2.63330613540803,-0.142043183724761,-1.76884302875893,0.489049225244631,-2.31403526433573,3.28546656610324,-0.598988915916907,2.21300917723084
-0.134227493791834,-1.97543143703297,-1.18702246116227,0.410693915795937,-1.6167208159431,-4.54505125896134,3.54008810021765,-0.287859099685587,1.71291623048701
0.296472807110386,-1.89191364132716,2.8972880828473,0.42885683844051,-1.57231101078746,-0.695668212372928,3.61147336616616,-0.349253048072004,2.27278833088386
2.48714929058032,2.46012122787203,1.78811188208836,-0.42114908654733,-2.45530195262801,-6.089347766434,3.35893478685297,-0.113554810059818,1.94669624362522
-2.72683706632828,1.5054192750385,0.336320914280235,1.32009865236407,0.618444830575795,-5.37318562151309,3.25929800961442,-0.999952195157633,1.80460272711786
-2.95473868112016,0.24549907343996,-1.2033473856048,2.90891691506783,1.1068581832193,-1.08414346879292,3.46293857619144,-0.759222148936911,1.91879187626269
-0.0563374983815077,1.68843529723258,2.16196418012391,2.13900953601383,1.33626217138363,-1.7394763645674,3.95456963269998,-0.252239893448575,1.547132690385
3.06638639484704,1.37681281381508,-0.0982050538932673,1.59908748181091,-0.467170905753654,0.158882035620921,3.31799580449823,-0.785610220914053,1.95033388076336
1.81528637654342,-2.25256101727996,-0.0451550215946308,1.38808615939957,1.90807249123152,1.78678165718751,3.80373838483229,-1.02586185504278,2.33787774504202
2.64510283744976,3.11112749281448,-0.0440107138387464,-1.99267961081136,-3.13875255765033,0.762720090908649,3.68149517150119,-0.300892173563604,2.38837286032905
1.09529426667256,0.796575633769706,-0.691328999868428,-2.72592217967685,-1.37873919898327,0.941910967817801,3.69424973462682,-0.00336133892311188,1.49686442049509
0.352969210552453,-2.80558180595538,-0.0998066700352478,-1.6999353300135,1.22269063711981,2.62531535024126,3.61699279441596,-0.251157482278636,2.16485480187384
0.0644251994178302,-1.32114916044194,-3.14096958054587,1.95821254167172,2.95528277031846,2.86528583051899,3.63660704705662,-0.576549002467439,2.04801325092693
0.394228776385869,-3.10603975792965,1.49180385968411,-1.28144928622512,0.435314473061863,4.35527706104017,3.68673856447912,-0.0437453883933802,2.09225794338966
3.10893606871026,-1.34999143781967,-2.89844408531857,-2.0180381467254,-2.35012289819934,-2.31319303458498,3.60382402419084,-0.384270490416216,1.72033648105079
3.02912791841509,-2.61941024065433,-1.46534864460388,-1.58601906860844,2.10134110346656,4.01925017814268,3.82623344106579,-0.478774858060892,2.25173194645829
2.33684561024542,-0.275492631067488,-2.84874730700103,-2.86976168902213,-2.03016230778942,-2.37109635620963,3.52158467854972,-0.281889011929571,1.72898638399314
-1.82304673419751,-1.31707349472661,3.03917744421802,2.56979872825126,-0.0102740527857748,2.11222583765529,4.09581175830671,-0.423535545492333,1.99439078422199
1.77761577614612,0.589943628288822,-0.0703252369286167,2.60465200397677,0.531502240007443,-5.18621555074283,3.2666038983499,-0.125084690359149,1.66810349968671
-0.652674423294415,2.48803537969205,0.685789076178366,-0.536309898902118,0.00636793496878152,2.54069002151545,4.2803889678791,-0.412213402697152,2.14410988149893
-1.03361526395453,-1.09994013022189,-1.7005645213383,-1.52788483198687,-1.57384261521081,-3.75795632740893,3.79705248291534,-0.355905079673587,1.39070766219404
-0.0548455404627211,-2.56053547639564,-1.67818643349399,-0.429349543602092,2.5910279218787,-2.33296258273402,3.24992800557561,-0.506432181794971,2.13149848222214
1.39335001495316,0.740254302026635,0.0316927977940056,-1.16941840922942,0.128017080729897,-3.97554770782513,3.34502488454845,-0.168783736197964,1.53634760439411
-2.91087768264143,0.163348346621184,1.46489112691385,-0.0948503377210725,1.90153449125031,-5.68357377021866,3.9621751686355,-0.420865632820356,1.87395637922192
1.94640866491786,-0.936795340470761,1.5458197678389,-0.30230183023651,2.71809369912305,5.43694169310895,3.86562438738486,-0.63471149537976,2.07892432113418
-2.2022844728869,-1.21858514662145,3.02533237518716,1.49009737775029,2.37498482771988,0.890281321394137,3.57993241317792,-0.481798194801307,2.08799987330071
1.43373967515513,-0.126633651282811,-0.0423902105624836,0.468174782800376,0.406787244018676,3.50118467039738,3.30513497481504,-0.495082992863185,1.35835348254769
-3.03685772906018,-1.36266682335452,-2.12967001601266,-1.05635928381661,-3.0867724037848,-3.00204435544201,3.78254461017861,-0.310591717724039,1.63677926368564
-1.52728818971464,-0.783545140804682,0.192044084893048,1.30743292857114,-2.03774454998818,6.14158332709798,3.69374275430055,-0.338135039867843,1.66734747388425
-1.0603715227164,3.03128259802419,0.385590978758503,1.60114464894111,-0.130467375927316,1.97422574572291,4.04559936634888,-0.29149514808921,2.40426974705325
1.5332514872712,-2.63769178280671,-2.38558827816537,1.10639487585742,3.05144592549547,-0.691869085284802,3.80657658136344,-0.596133751403339,1.87934854654409
-0.367908220588664,2.01101958761578,-2.36604419852628,-0.0100813404023739,-2.10816589021751,-4.68505941815671,3.5612966145358,-0.382623096455941,1.92937312999478
-2.06988979101738,3.08149454168141,-1.54307515522662,0.99649098259906,-2.26320081441674,-6.27054825818224,3.69518291371299,-0.362257964628083,2.03414868893986
3.00020942295281,1.26980558344332,-0.0598140353133458,-0.887043371173425,2.68851621406551,-0.619750997513021,3.34715333588013,-0.303317102441175,1.70760893419596
-2.42308450518596,-3.115865742317,-1.12976794952883,-3.03315684002342,1.30504501390067,1.01773396921157,3.96232401691967,-0.449125161715815,2.01018214030923
-2.88733547182205,2.76409739700206,0.747042041622283,1.19520765131633,-2.85477756236085,2.87520148097853,3.46754397113627,-0.3863801357559,2.3638501461069
-2.61004527924579,-2.05713410716896,-3.01481880938355,0.357963204242281,-0.181966145402001,-4.85675959873319,3.84481747796119,-0.807358965518271,1.94145437856205
2.4151607288967,2.46081973343621,2.06659514848075,0.696320511737678,2.80694466733813,-2.00737564922868,3.55499589691574,-0.188667319112184,1.80312652551415
-2.35329822416152,-1.62517385929595,0.966281115436006,-2.09043144084891,1.04748626424601,-2.30680610337127,4.05611483990666,-0.465581727984871,1.92740850566344
-0.184574637574776,-0.178657683439308,-1.99503619533603,-0.830428732725552,2.27863012087891,-4.13124435709504,3.81704339844385,-0.52456280689989,1.54989303153474
2.32806262864893,-0.784374078215955,-0.871596260870807,1.58750055261045,-0.226484069736881,-0.4431792979214,3.47450667575385,-0.779246823460657,1.63421873393289
0.418209835106822,-1.16984356724918,-0.970236877119715,-2.68461456697935,2.79855074496503,-2.36255514251364,3.5526537939684,-0.626117498453847,1.76427912365312
-2.15087769449284,1.69874029760219,0.231469521455565,-2.54382651503277,3.09911957933913,-0.252966536414477,3.36716975806028,-0.704216422780643,1.93811491189541
0.413858448257892,2.86291039199154,0.527885088295021,0.334920750749013,0.0485505008493732,-3.12153629914287,3.7864018896363,0.020407811066209,2.41653334565624
-1.94111003620517,0.00102306847524059,2.39482985568389,0.33742714294364,0.293586610727044,5.71920299406522,4.10585363073753,-0.424309484759554,1.94658210762851
-1.07166021363109,0.290758826089623,-2.33509655121652,0.893326696646036,0.336949142081476,-3.8746288217786,4.12186752197359,-0.473020040532718,2.02803750501231
-1.94668221297056,2.24039649656549,2.55013501944954,0.860457697261307,2.9496293255237,-0.031190588930051,3.52944505815163,-0.512589686092285,1.81272495489217
-2.62321578530194,0.684567549891876,-1.53188097007896,-2.05193200324108,-0.0279835608368497,-2.25133533653673,3.56353165984244,-0.967093714606438,1.79180514525651
0.048241648185003,1.55594811588954,-2.10791217185394,0.796363009623565,0.478926990834298,5.96732408685864,3.77114720265635,-0.0806401319663659,2.25288947828993
1.23442550013956,1.25729617068373,-0.464572406312947,-1.53975460756708,3.04155622547348,0.860823621183828,3.95449575758485,-0.0703956469741874,1.83031483013059
-0.34520801349011,1.78573592093297,-2.82496417888421,0.149061295227536,-0.627504575446761,-3.99825161050674,3.74232996201441,-0.0971047528855027,1.87561287296285
3.08659985814917,-0.592044412576254,1.64606611363523,-1.13300122482845,1.41652402162296,3.32971808498357,3.70787952267725,-0.624943456857935,1.92065349447379
2.69971952285167,-2.04348353175383,-0.22971431631431,-1.46317935705913,-0.0654588930171278,0.909046405921145,3.8942799093933,-0.978819715428811,2.17957178675921
2.67775822092747,2.13933248173413,0.917317707119126,2.92006200499582,1.10294818813987,-0.00112465333109135,3.1499535752207,-0.457369223744764,2.2329315185211
-0.959010371803013,0.300425324816404,0.388613845014745,-2.04678510429126,1.02041301214354,3.48394457980102,3.95574825144443,-0.358158701972925,1.74002699262784
3.10939602504452,-1.94636133377928,2.50115626585503,0.543970129876775,2.40809304337427,-3.04186713213459,3.50963151872268,-0.3833539239234,2.04699041920223
0.893948216793824,-0.563250432044156,1.17315895434153,2.10344407988161,-0.524439354990071,4.23155585845604,3.31055372327998,-0.365007236669009,1.73834398940646
-1.54628468606037,1.83429772103696,-0.152832384807866,0.744302237792837,-1.60728543359356,3.88449216538416,3.79969896498393,-0.679835310347556,2.29061664475299
2.59732153055884,-3.12480286484633,2.72060687090061,-3.06491763705851,0.269803988515547,2.25951701218509,3.39660285144485,-0.712877413949677,2.12359083084323
0.361813559172451,-1.5563774195615,1.7501295237276,2.10393622904668,2.8161767049024,3.30392689763881,3.41006869704961,-0.674301622461117,2.19436363690748
0.0960357876756319,2.42884373152116,-1.99985832507932,2.52843426119508,2.30050516841995,1.37396400537603,3.55803570894155,-0.518266541580942,2.01429177789086
1.13259925420219,-1.91441215760345,1.51268416661091,2.53764727874968,-1.88825987785326,-3.53268770586797,3.59417225760348,-0.509621082285962,1.97334789233959
-1.7114665270506,-2.98608412408738,-1.37057805207091,-2.15246876658443,0.950179109020485,4.08928764105735,3.98345230998758,-0.459522041416609,2.15726932635889
2.71551507870981,-2.19206978735916,-2.12921939082214,-2.86628477629326,-2.28597432389981,3.16146200903787,4.08927340141188,-0.588832047586395,1.93744132381052
-1.68207943449399,-2.03247221565422,-0.834665019279193,-0.929366205996886,1.87013542371698,2.15379029282298,3.76556647946368,-0.0842394189638807,2.2331064471846
1.7095430467175,-2.86939639332065,-2.62018057009598,-0.96518227473417,3.08406374550577,6.25954414602672,3.83800767174976,-0.613152959916466,1.96552829504228
-1.19566847501134,-0.278699254818158,-2.62564916620538,-0.688030211264605,-1.21217612395613,-1.25573983552054,3.92753749615315,-0.506262182943088,2.11604081198524
1.0586141554461,-2.74346939588997,-3.13728710110892,0.816340566820589,0.652684481553383,-5.14360496185614,3.40246476495078,-0.291105668707344,1.78497416365455
-1.03589232720439,2.4914806321906,-0.732457210069557,-2.60728652659483,0.86934577751688,4.61618444624304,3.97215689448657,-0.314728210359895,2.17418306322055
-2.99989324221356,-2.47251617241934,-0.549022211842794,-2.71753825225132,-1.40607483333809,-0.82862813223501,4.0045347232492,-0.563235908281025,2.47244572501181
-3.09051628320174,-1.02037368865702,-0.585821095526621,0.951666159845924,-1.86935671118168,-0.857355925651547,3.73965961618737,-0.485896742624677,1.68252667540123
1.9399533150707,-2.13815729309961,2.44622796610008,-1.65212442794203,-0.489823031630817,2.61182128791477,3.302395491626,-0.465466842950823,2.0055385011699
0.0058716625589641,0.846462846743477,0.691945467888918,0.122032480143452,-0.109465357203946,5.25105898042847,3.96438082991657,-0.0609341476332135,1.51444294273825
-0.427961697705257,-1.75323472153842,2.40876415960514,0.837056288461586,1.86862036562159,5.01618472211779,3.90451620821633,-0.466513004667235,2.13284616125103
-0.940656631282811,1.82093063041468,2.93299368130485,1.38617530079122,-2.1033004482448,5.69896683342327,3.83861167705602,-0.674693260613364,1.90494353023487
2.45214502300749,-3.07758452171985,-2.02467467289084,1.41126176789102,-1.29624894562201,-1.24908423332587,3.52066545525465,-0.547842402883376,2.09864002088882
2.56756946596774,1.8546061591858,-1.10817947200465,1.29930773747018,0.946791657969342,-1.63224834967683,3.28919332299477,-0.548195845925589,2.43927754294483
2.92349228071691,-2.00537045258202,-2.44170123701126,-2.98536408783402,-0.449207215221186,-1.24064982685063,3.885743049228,-0.857023058548686,1.84728571600349
-0.468375977134834,-0.788202747364453,-2.33232927983402,-2.92185805474603,1.84581750359026,-1.91630576222945,3.6342032150008,-0.332811264794121,2.00007206817203
0.045816705724179,2.55114400466927,0.487594922572496,2.24927768861145,2.21409120404579,6.14955813677107,4.03245398367076,-0.454872263182449,2.4660968949858
1.5197325944978,-1.58619435116138,-0.253288246883571,-2.63382061813805,0.924341464700248,1.58814288782552,3.40467133529682,-0.673756551336317,1.79623080649649
-2.10772154810523,0.0966204408478801,1.11944468791089,-0.56868988706764,3.07514882561556,5.11173574178349,3.69865523188537,-0.182633224937804,1.63022137328659
-1.43941078098903,3.02309970890674,2.52841703553443,1.20587739842021,-0.00372650749596204,-3.1806390797049,4.10387186408425,-0.631193492705938,2.01369865028364
3.00002150092169,-0.215283225209516,2.90573125556723,2.33408570451448,-2.29490023992098,5.06659120984196,3.67864723455158,-0.391996640018752,1.73772347295357
-0.150968887635461,2.31906209532532,2.55533562001521,2.08132106442493,-2.28548020131835,5.02032190636208,3.83202454414657,-0.525204415179268,2.10085684598943
1.6886652476527,3.00135623904504,-1.59679672166719,0.767148853335201,1.58491221145335,5.91883953861399,3.59818447644413,-0.849154130389053,2.37671035695379
2.47150498909742,-2.88427303167006,0.26305293180142,0.827234379717392,2.61193710568125,-3.35138545251054,3.78590973527772,-0.407012488739734,2.55940447074963
1.88205513075104,0.0568946428056827,1.55240754522869,1.55694967345471,-0.965837431779418,-0.287931047089395,3.42003076981554,-0.512471661872357,1.63462282726089
-1.44190378641142,2.73044101265705,1.81391215288261,-0.657024797449301,0.692613940504673,3.42717547355307,4.03556511123422,-0.543076031159241,1.8958679522189
0.976297993129252,-1.34964940814838,0.312429004994392,-2.37328011096154,2.50270516525086,-2.75323941198012,3.59630266320135,-0.710738384336429,1.85204061300507
2.3392922423638,0.957447337950088,-0.808212082666805,-1.56228301579813,-2.5383718463414,-6.04221195640077,3.34788425628072,0.0154527006514371,1.81358459789632
0.886256011526331,-0.199999120346639,1.32327586733759,-1.76336489806999,2.57440897047302,2.82875001413943,3.68475868826014,-0.594425040243923,1.78172954927708
-0.334817707421208,-2.52746256462857,-0.844326743798226,-2.99817053839564,-1.53744163045249,3.85422566239121,3.48335011219016,-0.244764732468269,2.43058906359021
-1.55076246342776,1.70259755853137,-2.46221195066893,1.4317331963849,-2.07349326923227,2.48292267232153,3.70780504102396,-0.623308486345772,1.86206362695379
0.327352069061249,0.614953296298851,-2.42159568674668,0.427536682039578,0.336104679464635,6.14046734047239,3.77457401678415,-0.0215685800301824,2.04602440109356
-3.08326860540511,-2.315938369864,-2.47794537691251,1.26457729070239,1.37446047651544,2.71687766615229,3.77445995690567,-0.616996083015914,1.63252220566651
-1.42225334919223,1.12413277874227,-3.09274771536106,-1.87607167557374,1.07542322677923,-4.83081472373983,3.95770065494151,-0.668061393388399,1.82890776365562
-0.20525199413848,-1.48744728188787,2.91899209561188,2.28675172637815,-0.691794230176522,-0.665936410429628,3.56678691348265,-0.0949711546562321,1.87608947497134
-0.604636991396429,-1.92803395103329,0.131401608517055,1.91230851811937,2.59701198863165,-6.12509666449325,3.17719000316597,-0.208588887480825,2.08619919209382
3.03622975556378,-0.947891946317022,-1.53302516855107,2.58406275779512,-0.0248321820122115,4.90754480149445,3.75443236410689,-0.847327859744426,1.70626269328118
2.74250692275167,2.74255466162734,1.2932903855109,2.78912399423034,2.36401003275565,-6.06268318698348,3.40457964846101,-0.268511784649495,2.3323191488499
0.590170801828039,2.7187761078538,-1.80385524596368,2.36434923438443,-0.432438739471927,4.99922253178442,3.52089038789842,-0.129546034315191,2.21451325156154
-2.93882272830155,1.2508073054841,0.256549791662661,-1.894972094664,-2.63563214787781,1.83119161235275,3.25048251229688,-0.451298653539288,1.58417600166993
0.4617093636073,-2.33718692787326,0.107538791417149,0.0479908438002727,1.10308888344847,-1.05179031120202,3.39052968067319,-0.301265595336832,2.48402426301941
-2.231164829579,2.18470467046923,-1.85604319098528,-2.92696615459922,-1.51548824784582,3.91184936295362,3.64467735683111,-0.715916182871144,2.40676794841363
-2.79314675316624,-0.506925041118963,-1.90164228865217,2.57172998388947,0.704910138501396,2.53422296734849,3.66791280153744,-0.796414014248305,1.89481080199751
-1.20781340498336,2.71885364721594,0.165851532390777,-2.68535564496141,-1.74353523224702,-4.28238222317506,3.94912395797287,-0.843052916825221,2.21765762213767
1.78222079958947,1.40874207930056,-1.49444728483984,-2.61411531886972,0.238179039732008,-0.919831063506211,3.25246775087926,-0.267393467890301,2.03111513256887
0.654088508443634,2.26141465593909,-1.04101610213843,-2.13518060148256,-0.15882805196968,-3.12352908622203,3.66390105706029,0.0207239378410456,2.30738448744966
2.06998696524875,-3.03600402277865,-1.61468800577446,-1.06067019665144,-1.28578946023977,3.95171382651152,3.75858776381635,-0.975954951400383,2.08016985047489
2.80612684785329,-0.772127085621799,2.40099148463921,0.287422095890409,2.78996125678243,4.15257405939921,3.80188435987788,-0.377069666349845,2.10436999385252
0.870177682610451,-0.404240157927429,2.67658283570316,-1.02383185219382,0.747039221734878,-0.627436469014858,3.46233897707731,-0.204019495633593,1.83661366038796
-2.19813078524569,2.78822566276183,0.661052798209929,0.109280396757852,2.1690406866387,4.29471491759674,3.40710634640354,-0.836434351520387,2.1680037283852
-0.396851620399968,0.896705009911734,-2.04492408104541,-2.21596734330184,-1.17769198242308,-2.05849260593488,4.21155073893826,-0.437880189611091,2.09461904389
-1.44506596967354,1.11354328889055,-2.24378014960089,-1.98801508979547,2.86043710016761,5.26036069746818,3.60356857100742,-0.689079005311012,1.94419652941802
-1.53758981040894,1.14065413529079,-1.79060680228633,0.00565299261199881,-3.01530683405079,2.08140695593105,3.57121386773411,-0.688356525163457,2.15649199614171
1.17619846208783,-2.17622550276704,-1.34073679760865,-1.94634997658108,2.13705019028563,-2.76290056664071,3.61579777165082,-0.621933986877722,2.11769791969583
0.246445617868969,1.82158740089101,1.19036133687091,-2.22894684995673,1.33057743737861,-1.5136404953327,3.91032415059796,-0.172893448937841,2.08237743643123
-2.66146299577915,0.454340479079729,1.75831997211703,1.95773943321945,3.04053090072433,3.90487917345248,3.69086634800213,-0.305805414147894,1.56603802197059
-1.69456736200322,2.5822993623348,-2.22764779881994,-2.38232547960173,-0.0427568903119422,4.34423950647233,4.07792392886882,-0.451850752468995,2.22157831495709
0.065117538457121,0.194100727910413,-1.31980991626606,-0.767533611879592,0.421697777596319,3.76379981026907,3.92171767711375,-0.0605725197365306,1.55497727031613
1.96823019962723,0.119323327803509,1.24521380121156,-2.16757425066764,-2.6380016047242,3.654223929742,3.88081042329089,-0.651705845517474,1.73202993981777
-0.88993838713446,0.576297828215913,-2.56821973967011,-0.646360309755891,-0.157094107062693,-0.322413250449748,4.07033137295289,-0.310002554531379,2.03512606206209
0.163615195275163,1.81813937641585,2.00682382604632,-2.10333967781131,-2.27171498710911,3.33606844057274,3.6808401605044,-0.489203506373134,1.71927265889855
3.0483136088384,2.53336733426811,0.619981466233105,-0.83794961174088,-1.64703725633359,1.2015716898135,3.14501547083784,-0.529628772049323,2.40839146813502
-0.495581620514633,0.357812602698172,0.41512456293142,-0.0588460996227571,1.23862433089506,4.48018512923471,3.6454971400728,-0.159701552111595,1.44260249354496
1.10720847160274,0.00565003426190058,1.82981666283765,1.16876933035825,1.51837626753759,3.72266138340892,3.33584900936993,-0.801268744414311,1.83097046868716
-1.64959421487173,-2.39879774888791,1.02393524620461,-2.66089333547251,-1.7791452632799,1.71590287212507,3.77128821540719,-0.620278543596747,2.29420756324882
-0.986937151869908,2.81585743532378,-1.52024718050655,1.13905910767593,1.87794912296624,2.29318643064447,3.52013458217203,-0.128294971275871,2.36092065783854
-2.51258130529122,-1.22000578796875,-0.322096333782971,-1.59682375789913,-0.758991432928392,-5.5102998688788,4.34212367871834,-0.378570429219722,1.68422517548896
1.2650012942545,-2.87621401251723,3.03795702777357,-2.36423708911453,3.04725998620984,2.2598619899161,3.78657282486554,-0.557516788702737,2.02989576628779
-2.22873690043261,1.75802894301268,-0.242124619552303,1.77726040667716,-1.19907374200456,5.25668675259353,3.73537690005184,-0.726276490488578,1.9925555095474
0.0370745281135267,0.154403745203838,1.95207011169248,-1.71106488939448,-0.548001184322518,-2.616419094994,3.40664202866104,-0.112577459353567,1.90116048904243
1.30957574571995,-2.18875132271252,0.906047905953557,1.19398763593103,2.1511147816951,5.38857021351114,3.63117238553447,-0.64488433568935,2.53625084596595
3.08163250489359,-0.224905669103146,-1.89733919573991,-2.2365899156742,-2.73726098139901,-4.89002855957353,3.47668383077598,-0.337377781641822,1.59622160095192
1.38974632563165,-0.85020612636366,-2.1417987067392,-1.65777102592402,0.40711153529919,1.06820078475888,3.31023559891407,-0.498302167643491,1.69864733813523
-0.0382095715701967,-2.09738543012578,0.275181642933971,2.29770991220283,2.44683965265508,-4.04805199778445,3.16535490729483,-0.507247184496535,2.13458591651757
-0.355446401983677,0.773299777003398,2.65157485599456,-3.09008882485216,-1.17660588030608,0.428347143595708,3.85454660612161,-0.256769980180339,2.04690933261498
-0.759559113029027,3.08765135101416,-2.32108947219216,-2.01007036195123,3.10273490464848,-2.62417689762211,3.48527064046747,-0.432840988451211,2.15746580983005
2.98485439555158,-1.99166118411719,-0.153643544573212,1.9175725368203,2.23004889341053,2.95853315715225,4.30477581581534,-0.515680610181109,1.97961794657564
-2.15128291274203,-0.320686325974268,-0.144452623910051,1.65422771805768,-2.81052695288126,-5.55876377736297,3.61505986614085,-0.359017087120193,1.59497246804538
-0.607829897187938,2.64666299473738,-1.69343370231352,1.44557897082461,2.54408784276119,0.934218570026133,3.44236685613312,-0.391401348724387,2.23624131513785
0.51623014858604,-0.378391421849027,-2.64262660760126,1.51940736278842,0.999522564604733,-4.47342348282866,3.73795368203961,-0.127915195961892,2.06483235859276
-1.87788911936572,-2.46527802796022,-1.38785420129533,-3.115760915283,-1.83557972694044,-5.03548553951288,3.88578690364128,-0.0940171304137636,2.29491860899161
1.40143644425492,-1.7396415895642,-2.43455458966048,1.70243650881011,2.4216827436746,5.8503041042705,3.7555184954097,-0.387891577863916,1.75144136344522
0.389796825511678,3.04456818079202,2.00003840628924,-2.53284128397062,2.86449282058003,2.35784581457089,3.82854676800579,-0.522247739848477,2.12893948542291
2.40101810713551,0.314101412127553,-1.45793138678392,-2.82605787700391,0.302499445876336,-5.55134104502337,3.30239127944306,-0.604064313221333,1.8008133449204
-1.80213393263938,-2.56738620685042,1.31619355304006,-1.14361390158316,1.79404506090225,-2.4257472203773,3.76488976778481,-0.497013714249017,2.03309000683548
-0.562003840904876,-2.87279315380171,-2.88725228214428,-0.125818294493444,1.57187919459836,0.856351342534554,3.47142787273897,-0.177544524812442,1.92484619500649
-0.928400213556494,1.2034345769907,1.35168532157622,-1.34243099668975,2.22656940005767,-4.48249899613899,3.70647845438683,-0.547037380784013,1.83198316623228
0.416541483362432,-1.98611445999929,1.21301031837684,0.437885328321121,2.16486556024978,-1.01869028062747,3.65892994458127,-0.459876316711966,2.40902162759581
1.02371288303723,0.988097550425974,-0.351834988325471,-2.22209104216723,2.24973592316578,-2.96385428786238,3.8147923216116,-0.293200596303961,1.8526484856945
1.52874802242595,0.986525299057112,1.80076316478269,2.64617992225882,-2.54342847123456,3.25254230060554,3.77537688867417,-0.338797086825931,1.83122799823947
0.621042566052225,-0.691316494925974,2.21246500783677,1.1728409911443,-0.0828077645301386,-5.81074525047543,3.23772849327147,-0.290848305175844,1.96407262589039
-0.425483112160241,0.984416023504105,1.60033666730728,0.336958305851473,1.36040607729966,2.88365022401541,3.58440287144795,-0.205058196476749,1.6051661359379
1.86310904735805,2.93241413128253,-2.88741663202093,0.704984433660755,-1.62694374908618,0.839046866656172,3.49551289282426,-0.272401713229017,1.98591216039866
2.14422337858029,-2.30174673220677,-1.5007278344398,-1.97338369783281,-1.00392213570229,-4.06610306414363,3.75438121715952,-1.07750591639307,1.97617239909506
-3.1007787277625,2.62510137484942,-0.0959052694361335,-0.306434562479358,0.823421070700443,3.33841382376542,3.28215518449409,-0.775510819629808,2.30691390818755
-2.62600339726568,1.25568814563368,-0.284864647636738,-0.935438766411024,-2.99504782460826,5.22634907355704,3.18568523321026,-0.586073434563719,1.81315312972699
-0.895956512053735,0.142070972495643,-1.04491997826569,0.630015052015689,2.1490730693417,-5.31000233620354,3.88829580511147,-0.740755052621602,1.44168182057099
1.85540715968064,0.738469590853125,1.61822107907305,-0.372076905865318,-0.599015173565809,-0.111833921230467,3.36129766933758,-0.559799791379382,1.46904046757156
-1.78837504952979,2.85807864413143,-2.58777262355616,1.41914808692928,-0.137170559010389,-4.63551582059146,4.07415318172011,-0.503494344402494,1.97205516659372
2.71291554947975,1.8743905046247,2.21447336348495,-1.01666583340442,-1.82994819395409,5.34619835855281,3.53711884204671,-0.433662282500981,1.56180574484704
1.65479313391906,-2.87528645608814,-2.42729874317454,2.52329582873221,-0.582714098473804,-6.04300954387876,3.35198945887724,-0.643994810295981,2.14074294417931
0.102107211921834,-1.96467320546776,-1.80171823609622,-1.94765124979601,-2.74788237114329,-4.1360793987191,3.2970925725871,-0.590358405348442,1.77933181680213
2.60749742331474,-1.09003383227623,-0.0185959873728403,3.01303766594492,-2.61659900603663,-4.21467983066927,4.04502362072217,-0.563710797738878,1.90120093600182
1.92200200595024,-1.98584594148044,1.71258835470061,0.917780213639594,2.15794431824288,4.83660331205208,3.65673348428642,-0.382106791360028,2.38234953475076
-2.42185775040887,-2.42057515633145,-1.91968474068845,0.68053963431525,-0.216311321363699,3.21343495750822,4.08078187271346,-0.613157296857231,1.84707883002403
